;FLAVOR:Marlin
;TIME:1877
;Filament used: 2.81568m
;Layer height: 0.28
;MINX:21.582
;MINY:21.582
;MINZ:0.28
;MAXX:243.536
;MAXY:243.536
;MAXZ:3.08
;TARGET_MACHINE.NAME:Creality Ender-6
;POSTPROCESSED
;  [CreateThumbnail]
;  [CreateThumbnail]
;Generated with Cura_SteamEngine 5.6.0
;
;

;
;

M82 ;absolute extrusion mode
START_PRINT BED_TEMP=70 EXTRUDER_TEMP=230.0
G92 E0
G92 E0
G1 F2700 E-0.5
;LAYER_COUNT:11
;LAYER:0
M107
M204 S500
G0 F6000 X24.837 Y24.819 Z0.28
;TYPE:SKIRT
G1 F2700 E0
G1 F900 X26.314 Y23.579 E0.1347
G1 X28.05 Y22.582 E0.27453
G1 X29.884 Y21.917 E0.41078
G1 X31.749 Y21.582 E0.54313
G1 X33.786 Y21.582 E0.68541
G1 X35.648 Y21.915 E0.81753
G1 X37.536 Y22.596 E0.95771
G1 X39.247 Y23.583 E1.09568
G1 X40.595 Y24.758 E1.22058
G1 X45.136 Y29.293 E1.66883
G1 X47.721 Y30.74 E1.87575
G1 X49.052 Y31.681 E1.9896
G1 X49.709 Y32.426 E2.05898
G1 X50.903 Y34.087 E2.20186
G1 X51.398 Y35.567 E2.31086
G1 X52.18 Y36.348 E2.38805
G1 X54.789 Y37.806 E2.59681
G1 X55.948 Y38.637 E2.69642
G1 X56.575 Y39.205 E2.75551
G1 X57.975 Y41.154 E2.92312
G1 X58.469 Y42.627 E3.03163
G1 X59.271 Y43.429 E3.11085
G1 X61.81 Y44.847 E3.31398
G1 X63.194 Y45.822 E3.43222
G1 X63.852 Y46.568 E3.5017
G1 X65.046 Y48.229 E3.64458
G1 X65.54 Y49.706 E3.75336
G1 X66.326 Y50.491 E3.83095
G1 X68.881 Y51.918 E4.03535
G1 X70.265 Y52.893 E4.1536
G1 X70.923 Y53.639 E4.22308
G1 X72.118 Y55.301 E4.36605
G1 X72.608 Y56.764 E4.47382
G1 X73.417 Y57.572 E4.55368
G1 X75.952 Y58.989 E4.75652
G1 X77.336 Y59.964 E4.87477
G1 X77.994 Y60.71 E4.94425
G1 X79.189 Y62.372 E5.08722
G1 X79.679 Y63.835 E5.19499
G1 X80.488 Y64.643 E5.27485
G1 X83.023 Y66.06 E5.47769
G1 X84.407 Y67.035 E5.59594
G1 X85.065 Y67.781 E5.66542
G1 X86.26 Y69.443 E5.8084
G1 X86.755 Y70.922 E5.91733
G1 X87.541 Y71.707 E5.99492
G1 X90.144 Y73.163 E6.20324
G1 X91.296 Y73.988 E6.30221
G1 X91.923 Y74.555 E6.36125
G1 X93.331 Y76.514 E6.52976
G1 X93.826 Y77.994 E6.63876
G1 X94.608 Y78.776 E6.716
G1 X97.215 Y80.234 E6.92463
G1 X98.367 Y81.059 E7.0236
G1 X98.994 Y81.626 E7.08265
G1 X100.402 Y83.585 E7.25115
G1 X100.897 Y85.065 E7.36015
G1 X101.679 Y85.847 E7.43739
G1 X104.286 Y87.305 E7.64603
G1 X105.438 Y88.13 E7.74499
G1 X106.065 Y88.697 E7.80404
G1 X107.473 Y90.656 E7.97254
G1 X107.968 Y92.136 E8.08154
G1 X108.75 Y92.918 E8.15879
G1 X111.357 Y94.376 E8.36742
G1 X112.509 Y95.201 E8.46639
G1 X113.136 Y95.768 E8.52543
G1 X114.544 Y97.727 E8.69394
G1 X115.039 Y99.207 E8.80294
G1 X115.822 Y99.99 E8.88028
G1 X118.432 Y101.451 E9.0892
G1 X119.763 Y102.392 E9.20305
G1 X120.42 Y103.137 E9.27243
G1 X121.614 Y104.798 E9.41531
G1 X122.108 Y106.276 E9.52415
G1 X122.893 Y107.061 E9.60169
G1 X125.503 Y108.522 E9.81061
G1 X126.834 Y109.463 E9.92446
G1 X127.491 Y110.208 E9.99384
G1 X128.685 Y111.869 E10.13672
G1 X129.179 Y113.346 E10.2455
G1 X129.967 Y114.134 E10.32334
G1 X132.574 Y115.593 E10.532
G1 X133.905 Y116.534 E10.64586
G1 X134.562 Y117.279 E10.71524
G1 X135.756 Y118.94 E10.85811
G1 X136.251 Y120.42 E10.96712
G1 X137.037 Y121.205 E11.04471
G1 X139.645 Y122.664 E11.25343
G1 X140.976 Y123.605 E11.36728
G1 X141.633 Y124.35 E11.43666
G1 X142.827 Y126.011 E11.57954
G1 X143.322 Y127.491 E11.68854
G1 X144.108 Y128.276 E11.76613
G1 X146.716 Y129.735 E11.97486
G1 X148.047 Y130.676 E12.08871
G1 X148.704 Y131.421 E12.15809
G1 X149.898 Y133.082 E12.30097
G1 X150.393 Y134.562 E12.40997
G1 X151.179 Y135.347 E12.48756
G1 X153.787 Y136.806 E12.69629
G1 X155.118 Y137.747 E12.81014
G1 X155.775 Y138.492 E12.87952
G1 X156.969 Y140.153 E13.0224
G1 X157.464 Y141.633 E13.1314
G1 X158.246 Y142.414 E13.20859
G1 X160.855 Y143.872 E13.41735
G1 X162.014 Y144.703 E13.51696
G1 X162.641 Y145.271 E13.57605
G1 X164.041 Y147.22 E13.74366
G1 X164.535 Y148.693 E13.85217
G1 X165.337 Y149.495 E13.93139
G1 X167.876 Y150.913 E14.13452
G1 X169.26 Y151.888 E14.25276
G1 X169.918 Y152.634 E14.32224
G1 X171.112 Y154.295 E14.46512
G1 X171.606 Y155.772 E14.5739
G1 X172.392 Y156.557 E14.65149
G1 X174.947 Y157.984 E14.85589
G1 X176.331 Y158.959 E14.97414
G1 X176.989 Y159.705 E15.04362
G1 X178.184 Y161.367 E15.18659
G1 X178.674 Y162.83 E15.29436
G1 X179.483 Y163.638 E15.37422
G1 X182.018 Y165.055 E15.57707
G1 X183.402 Y166.03 E15.69531
G1 X184.06 Y166.776 E15.76479
G1 X185.255 Y168.438 E15.90777
G1 X185.745 Y169.901 E16.01553
G1 X186.554 Y170.709 E16.09539
G1 X189.089 Y172.126 E16.29824
G1 X190.473 Y173.101 E16.41648
G1 X191.131 Y173.847 E16.48596
G1 X192.326 Y175.509 E16.62894
G1 X192.821 Y176.988 E16.73787
G1 X193.607 Y177.773 E16.81546
G1 X196.21 Y179.229 E17.02378
G1 X197.362 Y180.054 E17.12275
G1 X197.989 Y180.621 E17.18179
G1 X199.429 Y182.624 E17.3541
G1 X203.687 Y178.378 E17.7741
G1 X204.87 Y177.367 E17.88279
G1 X206.577 Y176.382 E18.02044
G1 X208.422 Y175.717 E18.15743
G1 X210.316 Y175.378 E18.29182
G1 X212.341 Y175.378 E18.43326
G1 X214.201 Y175.712 E18.56525
G1 X216.064 Y176.387 E18.70365
G1 X217.78 Y177.379 E18.84209
G1 X218.85 Y178.291 E18.94029
G1 X235.404 Y194.827 E20.57457
G1 X236.782 Y196.347 E20.71787
G1 X238.009 Y197.907 E20.85649
G1 X239.291 Y199.806 E21.01653
G1 X240.15 Y201.301 E21.13696
G1 X241.26 Y203.627 E21.31697
G1 X242.052 Y205.693 E21.47151
G1 X242.51 Y207.188 E21.58072
G1 X243.113 Y209.857 E21.77184
G1 X243.366 Y211.604 E21.89513
G1 X243.536 Y214.009 E22.06353
G1 X243.513 Y216.227 E22.21846
G1 X243.326 Y218.41 E22.37149
G1 X243.066 Y220.094 E22.49051
G1 X242.48 Y222.618 E22.67149
G1 X241.972 Y224.239 E22.79014
G1 X241.02 Y226.624 E22.9695
G1 X240.061 Y228.571 E23.1211
G1 X239.232 Y229.997 E23.2363
G1 X237.786 Y232.11 E23.41514
G1 X236.739 Y233.419 E23.53222
G1 X235.054 Y235.23 E23.70499
G1 X233.377 Y236.764 E23.86374
G1 X231.602 Y238.153 E24.02116
G1 X230.137 Y239.14 E24.14454
G1 X227.945 Y240.39 E24.32079
G1 X226.415 Y241.118 E24.43914
G1 X224.011 Y242.052 E24.61927
G1 X222.517 Y242.51 E24.72842
G1 X219.849 Y243.113 E24.91947
G1 X218.1 Y243.366 E25.0429
G1 X215.696 Y243.536 E25.21123
G1 X213.479 Y243.513 E25.36609
G1 X211.296 Y243.326 E25.51912
G1 X209.612 Y243.066 E25.63813
G1 X207.087 Y242.48 E25.81918
G1 X205.466 Y241.972 E25.93783
G1 X203.043 Y241.004 E26.12008
G1 X201.361 Y240.181 E26.25087
G1 X199.439 Y239.062 E26.40621
G1 X197.812 Y237.944 E26.54409
G1 X195.882 Y236.382 E26.71751
G1 X194.579 Y235.167 E26.84195
G1 X178.24 Y218.794 E28.45756
G1 X177.379 Y217.774 E28.55079
G1 X176.377 Y216.04 E28.69067
G1 X175.713 Y214.195 E28.82762
G1 X175.378 Y212.332 E28.95984
G1 X175.378 Y210.312 E29.10092
G1 X175.713 Y208.437 E29.23396
G1 X176.381 Y206.587 E29.37134
G1 X177.388 Y204.84 E29.51218
G1 X178.453 Y203.606 E29.62603
G1 X182.587 Y199.466 E30.03468
G1 X181.297 Y197.129 E30.22112
G1 X180.56 Y196.392 E30.29392
G1 X178.698 Y195.676 E30.43326
G1 X176.771 Y194.152 E30.60486
G1 X176.509 Y193.884 E30.63104
G1 X175.467 Y192.318 E30.76242
G1 X174.226 Y190.058 E30.9425
G1 X173.481 Y189.313 E31.01609
G1 X171.602 Y188.592 E31.15666
G1 X169.715 Y187.094 E31.32495
G1 X169.41 Y186.781 E31.35547
G1 X168.503 Y185.426 E31.46936
G1 X167.155 Y182.986 E31.66406
G1 X166.412 Y182.243 E31.73745
G1 X164.531 Y181.521 E31.87818
G1 X162.644 Y180.023 E32.04646
G1 X162.339 Y179.71 E32.07699
G1 X161.432 Y178.355 E32.19087
G1 X160.086 Y175.917 E32.38539
G1 X159.341 Y175.172 E32.45898
G1 X157.46 Y174.45 E32.5997
G1 X155.573 Y172.952 E32.76798
G1 X155.268 Y172.639 E32.79851
G1 X154.361 Y171.284 E32.9124
G1 X153.015 Y168.846 E33.10691
G1 X152.271 Y168.102 E33.1804
G1 X150.428 Y167.396 E33.31825
G1 X148.769 Y166.096 E33.46546
G1 X147.624 Y164.836 E33.58438
G1 X145.949 Y161.78 E33.82779
G1 X145.2 Y161.031 E33.90177
G1 X143.357 Y160.324 E34.03964
G1 X141.704 Y159.029 E34.18631
G1 X140.55 Y157.759 E34.30617
G1 X138.877 Y154.708 E34.5492
G1 X138.129 Y153.96 E34.62309
G1 X136.286 Y153.254 E34.76094
G1 X134.627 Y151.954 E34.90815
G1 X133.482 Y150.694 E35.02707
G1 X131.807 Y147.638 E35.27048
G1 X131.058 Y146.889 E35.34446
G1 X129.215 Y146.183 E35.48231
G1 X127.556 Y144.883 E35.62952
G1 X126.411 Y143.623 E35.74844
G1 X124.736 Y140.567 E35.99185
G1 X123.984 Y139.816 E36.06608
G1 X122.103 Y139.095 E36.20678
G1 X120.397 Y137.746 E36.35869
G1 X119.879 Y137.235 E36.40951
G1 X118.939 Y135.814 E36.52851
G1 X117.662 Y133.494 E36.71348
G1 X116.913 Y132.745 E36.78747
G1 X115.032 Y132.024 E36.92817
G1 X113.326 Y130.675 E37.08008
G1 X112.808 Y130.164 E37.1309
G1 X111.868 Y128.743 E37.2499
G1 X110.591 Y126.423 E37.43487
G1 X109.842 Y125.674 E37.50886
G1 X107.961 Y124.953 E37.64956
G1 X106.255 Y123.604 E37.80147
G1 X105.737 Y123.093 E37.85229
G1 X104.797 Y121.672 E37.97129
G1 X103.521 Y119.353 E38.15617
G1 X102.771 Y118.603 E38.23025
G1 X100.89 Y117.882 E38.37095
G1 X99.184 Y116.533 E38.52286
G1 X98.666 Y116.022 E38.57368
G1 X97.726 Y114.601 E38.69269
G1 X96.449 Y112.281 E38.87766
G1 X95.707 Y111.539 E38.95095
G1 X93.845 Y110.823 E39.09029
G1 X91.918 Y109.299 E39.26188
G1 X91.656 Y109.031 E39.28806
G1 X90.614 Y107.465 E39.41944
G1 X89.371 Y105.203 E39.59972
G1 X88.636 Y104.468 E39.67232
G1 X86.774 Y103.752 E39.81166
G1 X84.847 Y102.228 E39.98326
G1 X84.585 Y101.96 E40.00943
G1 X83.543 Y100.394 E40.14081
G1 X82.302 Y98.134 E40.3209
G1 X81.565 Y97.397 E40.3937
G1 X79.703 Y96.681 E40.53304
G1 X77.776 Y95.157 E40.70463
G1 X77.514 Y94.889 E40.73081
G1 X76.472 Y93.323 E40.86219
G1 X75.231 Y91.063 E41.04228
G1 X74.494 Y90.326 E41.11508
G1 X72.632 Y89.61 E41.25441
G1 X70.705 Y88.086 E41.42601
G1 X70.443 Y87.818 E41.45219
G1 X69.401 Y86.252 E41.58357
G1 X68.158 Y83.989 E41.76391
G1 X67.417 Y83.248 E41.8371
G1 X65.536 Y82.526 E41.97783
G1 X63.649 Y81.028 E42.14611
G1 X63.344 Y80.715 E42.17663
G1 X62.437 Y79.36 E42.29052
G1 X61.089 Y76.92 E42.48523
G1 X60.346 Y76.177 E42.55862
G1 X58.465 Y75.455 E42.69934
G1 X56.578 Y73.957 E42.86762
G1 X56.273 Y73.644 E42.89815
G1 X55.366 Y72.289 E43.01204
G1 X54.02 Y69.851 E43.20655
G1 X53.276 Y69.107 E43.28004
G1 X51.433 Y68.401 E43.41789
G1 X49.774 Y67.101 E43.5651
G1 X48.629 Y65.841 E43.68402
G1 X46.954 Y62.785 E43.92743
G1 X46.205 Y62.036 E44.00141
G1 X44.362 Y61.33 E44.13926
G1 X42.703 Y60.03 E44.28647
G1 X41.558 Y58.77 E44.40539
G1 X39.883 Y55.714 E44.6488
G1 X39.134 Y54.965 E44.72278
G1 X37.291 Y54.258 E44.86066
G1 X35.638 Y52.963 E45.00732
G1 X34.484 Y51.693 E45.12718
G1 X32.811 Y48.642 E45.37022
G1 X32.063 Y47.894 E45.4441
G1 X30.216 Y47.186 E45.58226
G1 X28.586 Y45.91 E45.72685
G1 X27.405 Y44.616 E45.84921
G1 X25.745 Y41.582 E46.09077
G1 X24.499 Y40.314 E46.21494
G1 X23.583 Y39.237 E46.31369
G1 X22.577 Y37.483 E46.45492
G1 X21.921 Y35.675 E46.58926
G1 X21.582 Y33.768 E46.72454
G1 X21.582 Y31.758 E46.86493
G1 X21.917 Y29.895 E46.99714
G1 X22.582 Y28.045 E47.13445
G1 X23.572 Y26.332 E47.27265
G1 X24.837 Y24.819 E47.41039
G0 F6000 X25.261 Y25.247
G1 F900 X26.662 Y24.071 E47.53815
G1 X28.302 Y23.129 E47.67025
G1 X30.039 Y22.499 E47.79931
G1 X31.805 Y22.182 E47.92463
G1 X33.731 Y22.182 E48.05915
G1 X35.495 Y22.497 E48.18431
G1 X37.279 Y23.141 E48.31679
G1 X38.9 Y24.076 E48.44749
G1 X40.171 Y25.183 E48.56522
G1 X44.77 Y29.776 E49.0192
G1 X47.428 Y31.264 E49.23196
G1 X48.647 Y32.129 E49.33636
G1 X49.259 Y32.823 E49.40099
G1 X50.363 Y34.364 E49.5334
G1 X50.874 Y35.891 E49.64586
G1 X51.816 Y36.832 E49.73886
G1 X54.439 Y38.294 E49.94861
G1 X55.598 Y39.125 E50.04822
G1 X56.125 Y39.606 E50.09805
G1 X57.434 Y41.429 E50.25481
G1 X57.944 Y42.951 E50.36692
G1 X58.908 Y43.914 E50.46209
G1 X61.517 Y45.371 E50.67081
G1 X62.79 Y46.271 E50.77971
G1 X63.402 Y46.965 E50.84433
G1 X64.506 Y48.506 E50.97674
G1 X65.016 Y50.03 E51.08899
G1 X65.963 Y50.976 E51.18248
G1 X68.588 Y52.442 E51.39248
G1 X69.861 Y53.342 E51.50137
G1 X70.473 Y54.036 E51.566
G1 X71.578 Y55.578 E51.6985
G1 X72.084 Y57.09 E51.80987
G1 X73.052 Y58.056 E51.90538
G1 X75.659 Y59.513 E52.11398
G1 X76.932 Y60.413 E52.22287
G1 X77.544 Y61.107 E52.2875
G1 X78.649 Y62.649 E52.42
G1 X79.155 Y64.161 E52.53137
G1 X80.123 Y65.127 E52.62689
G1 X82.73 Y66.584 E52.83548
G1 X84.003 Y67.484 E52.94438
G1 X84.615 Y68.178 E53.009
G1 X85.719 Y69.719 E53.14141
G1 X86.23 Y71.245 E53.25381
G1 X87.178 Y72.192 E53.3474
G1 X89.851 Y73.687 E53.56132
G1 X90.946 Y74.475 E53.65555
G1 X91.473 Y74.956 E53.70538
G1 X92.791 Y76.79 E53.86313
G1 X93.302 Y78.318 E53.97566
G1 X94.245 Y79.261 E54.06881
G1 X96.922 Y80.758 E54.28304
G1 X98.017 Y81.546 E54.37726
G1 X98.544 Y82.027 E54.4271
G1 X99.862 Y83.861 E54.58485
G1 X100.373 Y85.389 E54.69738
G1 X101.316 Y86.332 E54.79053
G1 X103.993 Y87.829 E55.00476
G1 X105.088 Y88.617 E55.09898
G1 X105.615 Y89.098 E55.14882
G1 X106.933 Y90.932 E55.30656
G1 X107.444 Y92.46 E55.4191
G1 X108.387 Y93.403 E55.51225
G1 X111.064 Y94.9 E55.72648
G1 X112.159 Y95.688 E55.8207
G1 X112.686 Y96.169 E55.87054
G1 X114.004 Y98.003 E56.02828
G1 X114.515 Y99.531 E56.14082
G1 X115.459 Y100.475 E56.23406
G1 X118.139 Y101.975 E56.44858
G1 X119.358 Y102.84 E56.55298
G1 X119.97 Y103.534 E56.61761
G1 X121.074 Y105.075 E56.75001
G1 X121.584 Y106.6 E56.86233
G1 X122.53 Y107.546 E56.95577
G1 X125.21 Y109.046 E57.17028
G1 X126.429 Y109.911 E57.27468
G1 X127.041 Y110.605 E57.33931
G1 X128.145 Y112.146 E57.47172
G1 X128.655 Y113.67 E57.58396
G1 X129.604 Y114.619 E57.6777
G1 X132.281 Y116.117 E57.89197
G1 X133.5 Y116.982 E57.99637
G1 X134.112 Y117.676 E58.061
G1 X135.216 Y119.217 E58.1934
G1 X135.727 Y120.744 E58.30587
G1 X136.674 Y121.69 E58.39936
G1 X139.352 Y123.188 E58.61368
G1 X140.571 Y124.053 E58.71809
G1 X141.183 Y124.747 E58.78271
G1 X142.287 Y126.288 E58.91512
G1 X142.798 Y127.815 E59.02759
G1 X143.745 Y128.761 E59.12108
G1 X146.423 Y130.259 E59.3354
G1 X147.642 Y131.124 E59.4398
G1 X148.254 Y131.818 E59.50443
G1 X149.358 Y133.359 E59.63684
G1 X149.869 Y134.886 E59.74931
G1 X150.816 Y135.832 E59.8428
G1 X153.494 Y137.33 E60.05712
G1 X154.713 Y138.195 E60.16152
G1 X155.325 Y138.889 E60.22615
G1 X156.429 Y140.43 E60.35856
G1 X156.94 Y141.957 E60.47102
G1 X157.882 Y142.898 E60.56402
G1 X160.505 Y144.36 E60.77377
G1 X161.664 Y145.191 E60.87338
G1 X162.191 Y145.672 E60.92321
G1 X163.5 Y147.495 E61.07997
G1 X164.01 Y149.017 E61.19208
G1 X164.974 Y149.98 E61.28725
G1 X167.583 Y151.437 E61.49597
G1 X168.856 Y152.337 E61.60487
G1 X169.468 Y153.031 E61.66949
G1 X170.572 Y154.572 E61.8019
G1 X171.082 Y156.096 E61.91415
G1 X172.029 Y157.042 E62.00764
G1 X174.654 Y158.508 E62.21764
G1 X175.927 Y159.408 E62.32653
G1 X176.539 Y160.102 E62.39116
G1 X177.644 Y161.644 E62.52366
G1 X178.15 Y163.156 E62.63503
G1 X179.118 Y164.122 E62.73055
G1 X181.725 Y165.579 E62.93914
G1 X182.998 Y166.479 E63.04803
G1 X183.61 Y167.173 E63.11266
G1 X184.715 Y168.715 E63.24516
G1 X185.221 Y170.227 E63.35653
G1 X186.189 Y171.193 E63.45205
G1 X188.796 Y172.65 E63.66064
G1 X190.069 Y173.55 E63.76954
G1 X190.681 Y174.244 E63.83416
G1 X191.785 Y175.785 E63.96657
G1 X192.296 Y177.311 E64.07897
G1 X193.244 Y178.258 E64.17256
G1 X195.917 Y179.753 E64.38648
G1 X197.012 Y180.541 E64.48071
G1 X197.539 Y181.022 E64.53054
G1 X198.857 Y182.856 E64.68829
G1 X199.155 Y183.746 E64.75384
G1 X204.111 Y178.803 E65.24274
G1 X205.217 Y177.86 E65.34426
G1 X206.835 Y176.926 E65.47475
G1 X208.572 Y176.3 E65.60371
G1 X210.372 Y175.978 E65.73143
G1 X212.285 Y175.978 E65.86505
G1 X214.046 Y176.294 E65.99001
G1 X215.808 Y176.933 E66.12092
G1 X217.433 Y177.872 E66.25201
G1 X218.461 Y178.748 E66.34634
G1 X234.96 Y195.23 E67.97524
G1 X236.311 Y196.718 E68.11561
G1 X237.512 Y198.243 E68.25119
G1 X238.771 Y200.105 E68.40819
G1 X239.608 Y201.559 E68.52537
G1 X240.718 Y203.885 E68.70538
G1 X241.478 Y205.869 E68.85378
G1 X241.936 Y207.364 E68.96299
G1 X242.519 Y209.943 E69.14767
G1 X242.767 Y211.646 E69.26787
G1 X242.937 Y214.051 E69.43627
G1 X242.915 Y216.176 E69.5847
G1 X242.733 Y218.318 E69.73485
G1 X242.473 Y220.002 E69.85386
G1 X241.907 Y222.439 E70.02861
G1 X241.399 Y224.06 E70.14726
G1 X240.482 Y226.359 E70.32014
G1 X239.542 Y228.269 E70.46883
G1 X238.713 Y229.695 E70.58404
G1 X237.317 Y231.735 E70.75669
G1 X236.27 Y233.044 E70.87377
G1 X234.649 Y234.788 E71.04007
G1 X233.007 Y236.292 E71.1956
G1 X231.267 Y237.655 E71.34998
G1 X229.802 Y238.642 E71.47336
G1 X227.687 Y239.848 E71.64341
G1 X226.157 Y240.576 E71.76176
G1 X223.835 Y241.478 E71.93575
G1 X222.341 Y241.936 E72.04489
