;FLAVOR:Marlin
;TIME:858
;Filament used: 0.891035m
;Layer height: 0.2
;MINX:93.079
;MINY:107.614
;MINZ:0.28
;MAXX:166.941
;MAXY:152.379
;MAXZ:5.48
;TARGET_MACHINE.NAME:Creality Ender-6
;POSTPROCESSED
;  [CreateThumbnail]
;  [CreateThumbnail]
;Generated with Cura_SteamEngine 5.6.0
;
;

;
;

M82 ;absolute extrusion mode
START_PRINT BED_TEMP=60 EXTRUDER_TEMP=220
G92 E0
G92 E0
G1 F2700 E-0.5
;LAYER_COUNT:27
;LAYER:0
M107
M204 S500
G0 F6000 X107.526 Y114.951 Z0.28
;TYPE:SKIRT
G1 F2700 E0
G1 F1200 X108.882 Y113.715 E0.12815
G1 X109.847 Y113.026 E0.21097
G1 X110.805 Y112.464 E0.28855
G1 X112.017 Y111.915 E0.38148
G1 X114.051 Y111.286 E0.53019
G1 X114.695 Y111.165 E0.57596
G1 X116.746 Y111.005 E0.71965
G1 X117.509 Y111.034 E0.77298
G1 X118.165 Y110.659 E0.82575
G1 X120.392 Y109.615 E0.99754
G1 X122.916 Y108.692 E1.18525
G1 X125.39 Y108.058 E1.36364
G1 X127.163 Y107.776 E1.48903
G1 X130.49 Y107.614 E1.72169
G1 X132.159 Y107.708 E1.83844
G1 X135.334 Y108.22 E2.06307
G1 X137.67 Y108.879 E2.2326
G1 X139.506 Y109.57 E2.36962
G1 X142.328 Y110.924 E2.58824
G1 X142.515 Y111.032 E2.60332
G1 X144.008 Y111.03 E2.7076
G1 X145.136 Y111.148 E2.78682
G1 X147.039 Y111.577 E2.92307
G1 X148.03 Y111.929 E2.99653
G1 X149.439 Y112.601 E3.10556
G1 X150.385 Y113.183 E3.18314
G1 X151.695 Y114.2 E3.29897
G1 X152.623 Y115.109 E3.38971
G1 X153.452 Y116.112 E3.48059
G1 X154.335 Y117.462 E3.59326
G1 X154.851 Y118.474 E3.67261
G1 X155.126 Y119.134 E3.72255
G1 X155.709 Y121.09 E3.86511
G1 X155.807 Y121.611 E3.90213
G1 X155.953 Y123.409 E4.02813
G1 X157.422 Y123.941 E4.13726
G1 X158.776 Y124.531 E4.24042
G1 X159.513 Y124.923 E4.29872
G1 X161.585 Y126.348 E4.47437
G1 X162.194 Y126.878 E4.53075
G1 X163.716 Y128.515 E4.68688
G1 X164.444 Y129.509 E4.77293
G1 X165.462 Y131.268 E4.91488
G1 X165.903 Y132.265 E4.99103
G1 X166.489 Y134.071 E5.12365
G1 X166.717 Y135.132 E5.19944
G1 X166.941 Y137.55 E5.36906
G1 X166.908 Y138.717 E5.4506
G1 X166.701 Y140.331 E5.56425
G1 X166.265 Y142.101 E5.69158
G1 X165.697 Y143.633 E5.8057
G1 X165.318 Y144.42 E5.86671
G1 X164.153 Y146.317 E6.0222
G1 X163.493 Y147.158 E6.09687
G1 X162.302 Y148.41 E6.21757
G1 X160.959 Y149.528 E6.33962
G1 X159.558 Y150.443 E6.45649
G1 X158.102 Y151.182 E6.57054
G1 X157.259 Y151.517 E6.6339
G1 X154.895 Y152.156 E6.80494
G1 X154.157 Y152.272 E6.85712
G1 X151.716 Y152.379 E7.02778
G1 X150.255 Y152.259 E7.13017
G1 X149.352 Y152.107 E7.19413
G1 X147.013 Y151.429 E7.36422
G1 X146.092 Y151.038 E7.43411
G1 X144.278 Y150.038 E7.57878
G1 X143.101 Y149.194 E7.67995
G1 X141.973 Y148.196 E7.78514
G1 X140.834 Y146.947 E7.90321
G1 X140.048 Y145.883 E7.9956
G1 X139.251 Y144.557 E8.10366
G1 X138.937 Y143.924 E8.15301
G1 X134.69 Y134.753 E8.85893
G1 X134.414 Y134.229 E8.90029
G1 X134.24 Y134.014 E8.91961
G1 X133.926 Y133.783 E8.94684
G1 X132.554 Y133.236 E9.05
G1 X131.803 Y132.753 E9.11237
G1 X131.297 Y132.872 E9.14868
G1 X129.422 Y132.933 E9.27971
G1 X128.908 Y132.999 E9.3159
G1 X128.181 Y133.164 E9.36797
G1 X126.478 Y133.641 E9.4915
G1 X126.052 Y133.784 E9.52288
G1 X125.634 Y134.143 E9.56137
G1 X125.356 Y134.662 E9.60249
G1 X120.922 Y144.217 E10.33823
G1 X120.477 Y145.038 E10.40346
G1 X119.653 Y146.317 E10.50972
G1 X118.993 Y147.158 E10.58439
G1 X117.802 Y148.41 E10.70509
G1 X116.459 Y149.528 E10.82714
G1 X115.058 Y150.443 E10.94402
G1 X113.602 Y151.182 E11.05806
G1 X112.759 Y151.517 E11.12142
G1 X110.395 Y152.156 E11.29246
G1 X109.657 Y152.272 E11.34464
G1 X107.216 Y152.379 E11.5153
G1 X105.755 Y152.259 E11.61769
G1 X104.852 Y152.107 E11.68165
G1 X102.513 Y151.429 E11.85174
G1 X101.648 Y151.065 E11.91729
G1 X99.784 Y150.043 E12.06577
G1 X98.701 Y149.273 E12.15859
G1 X97.521 Y148.241 E12.26808
G1 X96.318 Y146.925 E12.39261
G1 X95.406 Y145.669 E12.50103
G1 X94.689 Y144.423 E12.60144
G1 X93.941 Y142.713 E12.7318
G1 X93.566 Y141.51 E12.81981
G1 X93.163 Y139.48 E12.96437
G1 X93.079 Y138.545 E13.02994
G1 X93.092 Y136.739 E13.15608
G1 X93.298 Y135.07 E13.27354
G1 X93.713 Y133.367 E13.39597
G1 X94.264 Y131.86 E13.50804
G1 X94.798 Y130.762 E13.59332
G1 X95.618 Y129.414 E13.70353
G1 X96.73 Y127.981 E13.83022
G1 X97.551 Y127.123 E13.91316
G1 X99.173 Y125.773 E14.06056
G1 X100.338 Y125.014 E14.15768
G1 X101.715 Y124.302 E14.26595
G1 X102.781 Y123.859 E14.34658
G1 X104.033 Y123.409 E14.4395
G1 X104.193 Y121.671 E14.56141
G1 X104.419 Y120.575 E14.63957
G1 X104.811 Y119.312 E14.73194
G1 X105.349 Y118.069 E14.82654
G1 X106.17 Y116.639 E14.94171
G1 X106.84 Y115.731 E15.02053
G1 X107.526 Y114.951 E15.09308
G0 F6000 X107.977 Y115.347
G1 F1200 X109.232 Y114.203 E15.21169
G1 X110.151 Y113.544 E15.29068
G1 X111.109 Y112.982 E15.36826
G1 X112.195 Y112.488 E15.45159
G1 X114.162 Y111.876 E15.59547
G1 X114.806 Y111.755 E15.64124
G1 X116.724 Y111.605 E15.77561
G1 X117.658 Y111.64 E15.8409
G1 X118.463 Y111.18 E15.90566
G1 X120.598 Y110.179 E16.07035
G1 X123.122 Y109.256 E16.25806
G1 X125.484 Y108.651 E16.42837
G1 X127.257 Y108.369 E16.55376
G1 X130.456 Y108.213 E16.77746
G1 X132.125 Y108.307 E16.89422
G1 X135.171 Y108.797 E17.10971
G1 X137.507 Y109.456 E17.27924
G1 X139.246 Y110.111 E17.40903
G1 X142.068 Y111.465 E17.62765
G1 X142.375 Y111.646 E17.65254
G1 X142.61 Y111.626 E17.66902
G1 X143.946 Y111.627 E17.76233
G1 X145.074 Y111.745 E17.84155
G1 X146.84 Y112.143 E17.96799
G1 X147.772 Y112.471 E18.037
G1 X149.181 Y113.143 E18.14603
G1 X150.018 Y113.658 E18.21468
G1 X151.275 Y114.629 E18.32562
G1 X152.203 Y115.538 E18.41635
G1 X152.951 Y116.442 E18.4983
G1 X153.801 Y117.735 E18.60638
G1 X154.297 Y118.705 E18.68247
G1 X154.572 Y119.365 E18.73241
G1 X155.119 Y121.201 E18.86622
G1 X155.217 Y121.722 E18.90325
G1 X155.386 Y123.842 E19.05179
G1 X157.183 Y124.491 E19.18524
G1 X158.494 Y125.061 E19.28509
G1 X159.231 Y125.453 E19.3434
G1 X161.191 Y126.801 E19.50955
G1 X161.8 Y127.331 E19.56594
G1 X163.232 Y128.87 E19.71277
G1 X163.96 Y129.864 E19.79882
G1 X164.913 Y131.511 E19.93173
G1 X165.354 Y132.508 E20.00787
G1 X165.902 Y134.197 E20.1319
G1 X166.13 Y135.258 E20.2077
G1 X166.341 Y137.533 E20.36728
G1 X166.308 Y138.7 E20.44882
G1 X166.118 Y140.189 E20.55367
G1 X165.702 Y141.893 E20.67618
G1 X165.155 Y143.375 E20.78652
G1 X164.806 Y144.107 E20.84316
G1 X163.68 Y145.948 E20.99389
G1 X163.058 Y146.744 E21.06445
G1 X161.867 Y147.996 E21.18514
G1 X160.576 Y149.066 E21.30226
G1 X159.286 Y149.908 E21.40986
G1 X157.88 Y150.624 E21.52006
G1 X157.037 Y150.959 E21.58342
G1 X154.802 Y151.563 E21.74513
G1 X154.064 Y151.679 E21.79731
G1 X151.764 Y151.781 E21.95811
G1 X150.355 Y151.667 E22.05685
G1 X149.452 Y151.515 E22.1208
G1 X147.246 Y150.876 E22.28122
G1 X146.381 Y150.512 E22.34677
G1 X144.628 Y149.55 E22.48643
G1 X143.451 Y148.706 E22.58759
G1 X142.416 Y147.791 E22.68408
G1 X141.316 Y146.589 E22.79789
G1 X140.562 Y145.573 E22.88626
G1 X139.789 Y144.29 E22.99088
G1 X139.475 Y143.657 E23.04023
G1 X135.221 Y134.473 E23.74717
G1 X134.918 Y133.898 E23.79257
G1 X134.658 Y133.577 E23.82142
G1 X134.221 Y133.255 E23.85934
G1 X132.832 Y132.701 E23.96379
G1 X131.914 Y132.111 E24.04001
G1 X131.22 Y132.274 E24.0898
G1 X129.379 Y132.334 E24.21845
G1 X128.802 Y132.408 E24.25908
G1 X128.027 Y132.584 E24.31459
G1 X126.31 Y133.065 E24.43914
G1 X125.971 Y133.178 E24.4641
G1 X125.696 Y133.305 E24.48525
G1 X125.454 Y133.49 E24.50653
G1 X125.223 Y133.71 E24.52881
G1 X125.042 Y133.977 E24.55134
G1 X124.819 Y134.394 E24.58437
G1 X120.394 Y143.932 E25.31877
G1 X119.972 Y144.714 E25.38083
G1 X119.18 Y145.948 E25.48325
G1 X118.558 Y146.744 E25.5538
G1 X117.367 Y147.996 E25.6745
G1 X116.076 Y149.066 E25.79162
G1 X114.786 Y149.908 E25.89921
G1 X113.38 Y150.624 E26.00942
G1 X112.537 Y150.959 E26.07278
G1 X110.302 Y151.563 E26.23448
G1 X109.564 Y151.679 E26.28666
G1 X107.264 Y151.781 E26.44747
G1 X105.855 Y151.667 E26.5462
G1 X104.952 Y151.515 E26.61016
G1 X102.746 Y150.876 E26.77057
G1 X101.881 Y150.512 E26.83612
G1 X100.131 Y149.553 E26.9755
G1 X99.095 Y148.82 E27.06414
G1 X97.963 Y147.835 E27.16895
G1 X96.804 Y146.572 E27.28868
G1 X95.892 Y145.316 E27.3971
G1 X95.238 Y144.181 E27.48859
G1 X94.513 Y142.533 E27.61434
G1 X94.154 Y141.392 E27.69789
G1 X93.761 Y139.426 E27.83792
G1 X93.677 Y138.491 E27.90349
G1 X93.692 Y136.744 E28.02552
G1 X93.881 Y135.211 E28.13341
G1 X94.277 Y133.573 E28.25111
G1 X94.828 Y132.066 E28.36318
G1 X95.311 Y131.074 E28.44025
G1 X96.131 Y129.726 E28.55045
G1 X97.164 Y128.396 E28.66808
G1 X97.985 Y127.538 E28.75102
G1 X99.501 Y126.276 E28.88879
G1 X100.666 Y125.517 E28.98591
G1 X101.945 Y124.856 E29.08647
G1 X102.984 Y124.424 E29.16506
G1 X104.636 Y123.83 E29.28768
G1 X104.633 Y123.39 E29.31841
G1 X104.781 Y121.792 E29.43051
G1 X105.007 Y120.696 E29.50867
G1 X105.362 Y119.55 E29.59246
G1 X105.9 Y118.307 E29.68707
G1 X106.654 Y116.994 E29.79282
G1 X107.291 Y116.127 E29.86796
G1 X107.977 Y115.347 E29.94052
G0 F6000 X108.428 Y115.743
G1 F1200 X109.635 Y114.647 E30.05439
G1 X110.455 Y114.062 E30.12475
G1 X111.413 Y113.5 E30.20232
G1 X112.374 Y113.061 E30.27612
G1 X114.273 Y112.466 E30.41511
G1 X114.917 Y112.345 E30.46088
G1 X116.701 Y112.205 E30.58587
G1 X117.807 Y112.247 E30.66318
G1 X118.718 Y111.723 E30.73658
G1 X120.804 Y110.743 E30.89756
G1 X123.328 Y109.82 E31.08527
G1 X125.578 Y109.244 E31.24749
G1 X127.351 Y108.962 E31.37288
G1 X130.422 Y108.812 E31.58764
G1 X132.091 Y108.906 E31.7044
G1 X135.009 Y109.375 E31.91082
G1 X137.296 Y110.018 E32.07676
G1 X138.986 Y110.652 E32.20283
G1 X141.808 Y112.006 E32.42145
G1 X142.236 Y112.262 E32.45628
G1 X142.611 Y112.226 E32.48259
G1 X143.884 Y112.224 E32.57151
G1 X145.012 Y112.342 E32.65073
G1 X146.643 Y112.71 E32.76751
G1 X147.515 Y113.013 E32.83199
G1 X148.868 Y113.655 E32.93659
G1 X149.651 Y114.133 E33.00066
G1 X150.908 Y115.104 E33.1116
G1 X151.782 Y115.965 E33.1973
G1 X152.45 Y116.773 E33.27052
G1 X153.267 Y118.009 E33.37401
G1 X153.743 Y118.936 E33.44679
G1 X154.018 Y119.596 E33.49673
G1 X154.529 Y121.312 E33.62179
G1 X154.627 Y121.833 E33.65882
G1 X154.776 Y123.733 E33.79193
G1 X154.755 Y124.252 E33.82821
G1 X156.944 Y125.041 E33.99073
G1 X158.212 Y125.591 E34.08727
G1 X158.949 Y125.983 E34.14558
G1 X160.797 Y127.254 E34.30223
G1 X161.406 Y127.784 E34.35862
G1 X162.748 Y129.225 E34.49616
G1 X163.476 Y130.219 E34.58222
G1 X164.364 Y131.754 E34.70608
G1 X164.805 Y132.751 E34.78222
G1 X165.315 Y134.323 E34.89765
G1 X165.543 Y135.384 E34.97345
G1 X165.741 Y137.516 E35.12301
G1 X165.708 Y138.683 E35.20455
G1 X165.535 Y140.048 E35.30065
G1 X165.139 Y141.686 E35.41836
G1 X164.613 Y143.117 E35.52484
G1 X164.264 Y143.849 E35.58149
G1 X163.206 Y145.58 E35.72318
G1 X162.623 Y146.33 E35.78953
G1 X161.432 Y147.582 E35.91023
G1 X160.194 Y148.603 E36.02231
G1 X159.013 Y149.374 E36.12082
G1 X157.658 Y150.066 E36.22709
G1 X156.815 Y150.401 E36.29045
G1 X154.709 Y150.97 E36.44282
G1 X153.971 Y151.086 E36.495
G1 X151.812 Y151.183 E36.64595
G1 X150.455 Y151.075 E36.74103
G1 X149.552 Y150.923 E36.80499
G1 X147.477 Y150.322 E36.95588
G1 X146.668 Y149.985 E37.01709
G1 X144.977 Y149.062 E37.15165
G1 X143.847 Y148.255 E37.24864
G1 X142.858 Y147.385 E37.34064
G1 X141.798 Y146.231 E37.45008
G1 X141.044 Y145.215 E37.53845
G1 X140.327 Y144.023 E37.63561
G1 X140.013 Y143.39 E37.68497
G1 X135.752 Y134.194 E38.39287
G1 X135.421 Y133.565 E38.44252
G1 X135.18 Y133.269 E38.46918
G1 X134.974 Y133.065 E38.48943
G1 X134.604 Y132.793 E38.5215
G1 X134.336 Y132.655 E38.54256
G1 X133.11 Y132.166 E38.63475
G1 X132.024 Y131.468 E38.72492
G1 X131.142 Y131.676 E38.78821
G1 X129.336 Y131.735 E38.91442
G1 X128.696 Y131.817 E38.95949
G1 X127.873 Y132.004 E39.01844
G1 X126.142 Y132.489 E39.144
G1 X125.749 Y132.62 E39.17293
G1 X125.385 Y132.788 E39.20093
G1 X125.066 Y133.031 E39.22894
G1 X124.762 Y133.32 E39.25824
G1 X124.53 Y133.663 E39.28716
G1 X124.275 Y134.141 E39.325
G1 X119.85 Y143.679 E40.0594
G1 X119.467 Y144.391 E40.11587
G1 X118.706 Y145.58 E40.21447
G1 X118.123 Y146.33 E40.28082
G1 X116.932 Y147.582 E40.40151
G1 X115.694 Y148.603 E40.5136
G1 X114.513 Y149.374 E40.61211
G1 X113.158 Y150.066 E40.71838
G1 X112.315 Y150.401 E40.78174
G1 X110.209 Y150.97 E40.93411
G1 X109.471 Y151.086 E40.98629
G1 X107.312 Y151.183 E41.13724
G1 X105.955 Y151.075 E41.23232
G1 X105.052 Y150.923 E41.29628
G1 X102.977 Y150.322 E41.44716
G1 X102.168 Y149.985 E41.50838
G1 X100.478 Y149.063 E41.64284
G1 X99.442 Y148.33 E41.73148
G1 X98.404 Y147.429 E41.82748
G1 X97.29 Y146.219 E41.94236
G1 X96.378 Y144.963 E42.05078
G1 X95.759 Y143.883 E42.13772
G1 X95.085 Y142.351 E42.25462
G1 X94.742 Y141.273 E42.33364
G1 X94.359 Y139.372 E42.46908
G1 X94.275 Y138.437 E42.53465
G1 X94.292 Y136.75 E42.65249
G1 X94.465 Y135.351 E42.75095
G1 X94.841 Y133.779 E42.86384
G1 X95.392 Y132.272 E42.97592
G1 X95.824 Y131.386 E43.04477
G1 X96.644 Y130.038 E43.15497
G1 X97.598 Y128.811 E43.26353
G1 X98.419 Y127.953 E43.34647
G1 X99.829 Y126.779 E43.47462
G1 X100.994 Y126.02 E43.57174
G1 X102.175 Y125.41 E43.66458
G1 X103.187 Y124.989 E43.74114
G1 X105.242 Y124.25 E43.89367
G1 X105.231 Y123.444 E43.94997
G1 X105.369 Y121.913 E44.05734
G1 X105.595 Y120.817 E44.1355
G1 X105.913 Y119.787 E44.2108
G1 X106.421 Y118.604 E44.30072
G1 X107.138 Y117.348 E44.40174
G1 X107.742 Y116.523 E44.47315
G1 X108.428 Y115.743 E44.5457
G0 F6000 X108.879 Y116.139
G1 F1200 X109.985 Y115.135 E44.65004
G1 X110.759 Y114.58 E44.71656
G1 X111.717 Y114.018 E44.79414
G1 X112.554 Y113.633 E44.85848
G1 X114.384 Y113.056 E44.99251
G1 X115.028 Y112.935 E45.03827
G1 X116.678 Y112.805 E45.15388
G1 X117.663 Y112.842 E45.22272
G1 X117.925 Y112.872 E45.24114
G1 X118.974 Y112.266 E45.32576
G1 X121.01 Y111.307 E45.48295
G1 X123.534 Y110.384 E45.67066
G1 X125.672 Y109.837 E45.8248
G1 X127.445 Y109.555 E45.9502
G1 X130.388 Y109.411 E46.156
G1 X132.057 Y109.505 E46.27276
G1 X134.913 Y109.967 E46.47483
G1 X137.085 Y110.58 E46.63247
G1 X138.775 Y111.214 E46.75854
G1 X141.5 Y112.521 E46.96963
G1 X142.099 Y112.879 E47.01837
G1 X142.613 Y112.826 E47.05446
G1 X143.822 Y112.821 E47.13891
G1 X144.95 Y112.939 E47.21812
G1 X146.446 Y113.277 E47.32525
G1 X147.318 Y113.58 E47.38973
G1 X148.555 Y114.167 E47.48536
G1 X149.338 Y114.645 E47.54944
G1 X150.488 Y115.532 E47.65088
G1 X151.321 Y116.349 E47.73237
G1 X151.95 Y117.105 E47.80106
G1 X152.734 Y118.284 E47.89995
G1 X153.189 Y119.167 E47.96934
G1 X153.464 Y119.827 E48.01928
G1 X153.939 Y121.423 E48.13558
G1 X154.037 Y121.944 E48.17261
G1 X154.176 Y123.709 E48.29627
G1 X154.137 Y124.668 E48.36331
G1 X156.706 Y125.592 E48.554
G1 X157.93 Y126.121 E48.64713
G1 X158.667 Y126.513 E48.70544
G1 X160.403 Y127.707 E48.8526
G1 X161.012 Y128.237 E48.90899
G1 X162.264 Y129.58 E49.03723
G1 X162.992 Y130.574 E49.12329
G1 X163.815 Y131.997 E49.23811
G1 X164.256 Y132.994 E49.31425
G1 X164.728 Y134.449 E49.42109
G1 X164.956 Y135.51 E49.49689
G1 X165.141 Y137.499 E49.63641
G1 X165.108 Y138.666 E49.71796
G1 X164.951 Y139.908 E49.8054
G1 X164.575 Y141.48 E49.91829
G1 X164.071 Y142.859 E50.02084
G1 X163.722 Y143.591 E50.07748
G1 X162.731 Y145.213 E50.21025
G1 X162.188 Y145.916 E50.27229
G1 X160.997 Y147.168 E50.39298
G1 X159.865 Y148.101 E50.49544
G1 X158.739 Y148.84 E50.58952
G1 X157.436 Y149.508 E50.69179
G1 X156.593 Y149.843 E50.75515
G1 X154.616 Y150.377 E50.89818
G1 X153.878 Y150.493 E50.95036
G1 X151.859 Y150.585 E51.09153
G1 X150.555 Y150.483 E51.18289
G1 X149.652 Y150.331 E51.24684
G1 X147.708 Y149.768 E51.3882
G1 X146.899 Y149.431 E51.44942
G1 X145.325 Y148.573 E51.57463
G1 X144.242 Y147.803 E51.66744
G1 X143.299 Y146.978 E51.75496
G1 X142.28 Y145.873 E51.85994
G1 X141.526 Y144.857 E51.94831
G1 X140.865 Y143.756 E52.03801
G1 X140.551 Y143.123 E52.08736
G1 X136.283 Y133.915 E52.79624
G1 X135.987 Y133.352 E52.84066
G1 X135.827 Y133.113 E52.86075
G1 X135.62 Y132.86 E52.88358
G1 X135.377 Y132.62 E52.90744
G1 X135.138 Y132.426 E52.92894
G1 X134.914 Y132.278 E52.94769
G1 X134.587 Y132.109 E52.9734
G1 X133.39 Y131.632 E53.0634
G1 X132.135 Y130.825 E53.16762
G1 X131.064 Y131.078 E53.24448
G1 X129.292 Y131.136 E53.36831
G1 X128.592 Y131.226 E53.41761
G1 X127.719 Y131.424 E53.48013
G1 X125.973 Y131.913 E53.60678
G1 X125.527 Y132.062 E53.63962
G1 X125.203 Y132.211 E53.66453
G1 X124.955 Y132.361 E53.68477
