;FLAVOR:Marlin
;TIME:2789
;Filament used: 2.33572m
;Layer height: 0.28
;MINX:97.9
;MINY:114.7
;MINZ:0.28
;MAXX:162.1
;MAXY:145.3
;MAXZ:59.64
;TARGET_MACHINE.NAME:Creality Ender-6
;POSTPROCESSED
;  [CreateThumbnail]
;  [CreateThumbnail]
;Post-Processed by AutoTowersGenerator
;AutoTowersGenerator: Post-processing a TempTower
;AutoTowersGenerator: Base height = 0.84 mm
;AutoTowersGenerator: Section height = 8.4 mm
;AutoTowersGenerator: Initial printed layer height = 0.28 mm
;AutoTowersGenerator: Printed layer height = 0.28 mm
;AutoTowersGenerator: Starting temperature = 250%
;AutoTowersGenerator: Temperature change = -5%
;AutoTowersGenerator: Enable LCD messages = False
;Generated with Cura_SteamEngine 5.6.0
;
;

;
;

M82 ;absolute extrusion mode
START_PRINT BED_TEMP=70 EXTRUDER_TEMP=230.0
G92 E0
G92 E0
G1 F2700 E-0.5
;LAYER_COUNT:213
;LAYER:0
M107
M204 S500
G0 F6000 X100.986 Y116.669 Z0.28
;TYPE:SKIRT
G1 F2700 E0
G1 F900 X101.233 Y116.462 E0.02251
G1 X102.854 Y115.549 E0.15245
G1 X103.94 Y115.072 E0.2353
G1 X105.898 Y114.7 E0.37451
G1 X154.231 Y114.751 E3.75039
G1 X155.452 Y114.926 E3.83654
G1 X156.266 Y115.132 E3.89519
G1 X158.341 Y116.132 E4.05607
G1 X160.131 Y117.786 E4.2263
G1 X160.338 Y118.033 E4.24881
G1 X161.251 Y119.654 E4.37875
G1 X161.73 Y120.744 E4.46191
G1 X162.1 Y122.7 E4.60096
G1 X162.04 Y137.558 E5.63874
G1 X161.853 Y138.939 E5.73608
G1 X161.766 Y139.253 E5.75884
G1 X160.668 Y141.541 E5.93609
G1 X159.014 Y143.331 E6.10632
G1 X158.767 Y143.538 E6.12883
G1 X157.146 Y144.451 E6.25878
G1 X156.06 Y144.928 E6.34162
G1 X154.102 Y145.3 E6.48083
G1 X105.642 Y145.24 E9.86558
G1 X104.261 Y145.053 E9.96292
G1 X103.947 Y144.966 E9.98568
G1 X101.659 Y143.868 E10.16294
G1 X99.869 Y142.214 E10.33316
G1 X99.662 Y141.967 E10.35567
G1 X98.749 Y140.346 E10.48562
G1 X98.27 Y139.256 E10.56878
G1 X97.9 Y137.3 E10.70782
G1 X97.96 Y122.442 E11.7456
G1 X98.147 Y121.061 E11.84294
G1 X98.234 Y120.747 E11.8657
G1 X99.332 Y118.459 E12.04296
G1 X100.986 Y116.669 E12.21318
G0 F6000 X101.427 Y117.076
G1 F900 X101.573 Y116.96 E12.22621
G1 X103.149 Y116.072 E12.35256
G1 X104.121 Y115.648 E12.42663
G1 X105.952 Y115.3 E12.5568
G1 X154.147 Y115.345 E15.92305
G1 X155.304 Y115.508 E16.00466
G1 X156.061 Y115.7 E16.0592
G1 X158 Y116.634 E16.20953
G1 X159.724 Y118.227 E16.37348
G1 X159.84 Y118.373 E16.3865
G1 X160.728 Y119.949 E16.51285
G1 X161.152 Y120.921 E16.58692
G1 X161.5 Y122.758 E16.71751
G1 X161.445 Y137.477 E17.74559
G1 X161.258 Y138.858 E17.84292
G1 X161.204 Y139.037 E17.85598
G1 X160.166 Y141.2 E18.02356
G1 X158.573 Y142.924 E18.18751
G1 X158.427 Y143.04 E18.20053
G1 X156.851 Y143.928 E18.32688
G1 X155.879 Y144.352 E18.40095
G1 X154.048 Y144.7 E18.53113
G1 X105.723 Y144.645 E21.90645
G1 X104.342 Y144.458 E22.00379
G1 X104.163 Y144.404 E22.01685
G1 X102 Y143.366 E22.18442
G1 X100.276 Y141.773 E22.34837
G1 X100.16 Y141.627 E22.36139
G1 X99.272 Y140.051 E22.48774
G1 X98.848 Y139.079 E22.56181
G1 X98.5 Y137.242 E22.6924
G1 X98.555 Y122.523 E23.72048
G1 X98.742 Y121.142 E23.81781
G1 X98.796 Y120.963 E23.83087
G1 X99.834 Y118.8 E23.99845
G1 X101.427 Y117.076 E24.1624
G0 F6000 X101.868 Y117.483
G1 F900 X103.444 Y116.595 E24.28875
G1 X104.302 Y116.224 E24.35404
G1 X106.006 Y115.9 E24.47519
G1 X154.065 Y115.939 E27.83193
G1 X155.157 Y116.09 E27.90893
G1 X155.855 Y116.267 E27.95922
G1 X157.659 Y117.136 E28.09908
G1 X159.317 Y118.668 E28.25676
G1 X160.205 Y120.244 E28.38311
G1 X160.576 Y121.102 E28.4484
G1 X160.9 Y122.811 E28.56989
G1 X160.85 Y137.396 E29.5886
G1 X160.663 Y138.777 E29.68594
G1 X159.664 Y140.859 E29.84724
G1 X158.132 Y142.517 E30.00491
G1 X156.556 Y143.405 E30.13126
G1 X155.698 Y143.776 E30.19655
G1 X153.994 Y144.1 E30.3177
G1 X105.804 Y144.05 E33.68359
G1 X104.423 Y143.863 E33.78093
G1 X102.341 Y142.864 E33.94222
G1 X100.683 Y141.332 E34.0999
G1 X99.795 Y139.756 E34.22625
G1 X99.424 Y138.898 E34.29154
G1 X99.1 Y137.189 E34.41303
G1 X99.15 Y122.604 E35.43174
G1 X99.337 Y121.223 E35.52908
G1 X100.336 Y119.141 E35.69038
G1 X101.868 Y117.483 E35.84805
G0 F6000 X102.246 Y117.958
G1 F900 X103.682 Y117.146 E35.96327
G1 X104.482 Y116.8 E36.02415
G1 X106.06 Y116.5 E36.13634
G1 X153.985 Y116.534 E39.48373
G1 X155.01 Y116.672 E39.55597
G1 X155.649 Y116.834 E39.60201
G1 X157.318 Y117.638 E39.7314
G1 X158.842 Y119.046 E39.87633
G1 X159.654 Y120.482 E39.99155
G1 X160 Y121.282 E40.05243
G1 X160.3 Y122.864 E40.1649
G1 X160.255 Y137.315 E41.17425
G1 X160.08 Y138.605 E41.26518
G1 X159.163 Y140.517 E41.41329
G1 X157.754 Y142.042 E41.55831
G1 X156.318 Y142.854 E41.67353
G1 X155.518 Y143.2 E41.73441
G1 X153.94 Y143.5 E41.8466
G1 X105.885 Y143.455 E45.20307
G1 X104.595 Y143.28 E45.29399
G1 X102.683 Y142.363 E45.4421
G1 X101.158 Y140.954 E45.58712
G1 X100.346 Y139.518 E45.70235
G1 X100 Y138.718 E45.76323
G1 X99.7 Y137.136 E45.87569
G1 X99.745 Y122.685 E46.88505
G1 X99.92 Y121.395 E46.97597
G1 X100.837 Y119.483 E47.12408
G1 X102.246 Y117.958 E47.2691
G0 F6000 X102.623 Y118.434
G1 F900 X103.92 Y117.697 E47.3733
G1 X104.662 Y117.376 E47.42977
G1 X106.114 Y117.1 E47.533
G1 X153.907 Y117.129 E50.87116
G1 X154.863 Y117.254 E50.9385
G1 X155.443 Y117.401 E50.9803
G1 X156.977 Y118.14 E51.09923
G1 X158.366 Y119.423 E51.2313
G1 X159.103 Y120.72 E51.33549
G1 X159.424 Y121.462 E51.39196
G1 X159.7 Y122.917 E51.4954
G1 X159.66 Y137.235 E52.49546
G1 X159.498 Y138.432 E52.57983
G1 X158.662 Y140.175 E52.71485
G1 X157.377 Y141.566 E52.84712
G1 X156.08 Y142.303 E52.95131
G1 X155.338 Y142.624 E53.00778
G1 X153.886 Y142.9 E53.11101
G1 X105.965 Y142.86 E56.45812
G1 X104.768 Y142.698 E56.54249
G1 X103.025 Y141.862 E56.67751
G1 X101.634 Y140.577 E56.80977
G1 X100.897 Y139.28 E56.91397
G1 X100.576 Y138.538 E56.97044
G1 X100.3 Y137.083 E57.07388
G1 X100.34 Y122.765 E58.07394
G1 X100.502 Y121.568 E58.15831
G1 X101.338 Y119.825 E58.29333
G1 X102.623 Y118.434 E58.4256
G0 F6000 X103 Y118.91
G1 F900 X104.158 Y118.248 E58.51876
G1 X104.842 Y117.952 E58.57082
G1 X106.168 Y117.7 E58.66509
G1 X153.832 Y117.724 E61.99425
G1 X154.716 Y117.836 E62.05648
G1 X155.237 Y117.968 E62.09402
G1 X156.636 Y118.642 E62.20249
G1 X157.89 Y119.8 E62.32171
G1 X158.552 Y120.958 E62.41487
G1 X158.848 Y121.642 E62.46693
G1 X159.1 Y122.97 E62.56134
G1 X159.065 Y137.155 E63.55211
G1 X158.916 Y138.258 E63.62985
G1 X158.16 Y139.834 E63.75194
G1 X157 Y141.09 E63.87136
G1 X155.842 Y141.752 E63.96452
G1 X155.158 Y142.048 E64.01658
G1 X153.832 Y142.3 E64.11085
G1 X106.045 Y142.265 E67.4486
G1 X104.942 Y142.116 E67.52634
G1 X103.366 Y141.36 E67.64843
G1 X102.11 Y140.2 E67.76784
G1 X101.448 Y139.042 E67.86101
G1 X101.152 Y138.358 E67.91307
G1 X100.9 Y137.03 E68.00748
G1 X100.935 Y122.845 E68.99825
G1 X101.084 Y121.742 E69.07599
G1 X101.84 Y120.166 E69.19808
G1 X103 Y118.91 E69.3175
G0 F6000 X103.378 Y119.386
G1 F900 X104.396 Y118.799 E69.39957
G1 X105.022 Y118.528 E69.44722
G1 X106.222 Y118.3 E69.53253
G1 X153.76 Y118.32 E72.85289
G1 X154.569 Y118.418 E72.9098
G1 X155.031 Y118.535 E72.94309
G1 X156.295 Y119.144 E73.04109
G1 X157.414 Y120.178 E73.14751
G1 X158.001 Y121.196 E73.22959
G1 X158.272 Y121.822 E73.27723
G1 X158.5 Y123.023 E73.36261
G1 X158.47 Y137.075 E74.3441
G1 X158.334 Y138.084 E74.41521
G1 X157.658 Y139.493 E74.52436
G1 X156.622 Y140.614 E74.63098
G1 X155.604 Y141.201 E74.71305
G1 X154.978 Y141.472 E74.7607
G1 X153.778 Y141.7 E74.84601
G1 X106.125 Y141.67 E78.1744
G1 X105.116 Y141.534 E78.24551
G1 X103.707 Y140.858 E78.35467
G1 X102.586 Y139.822 E78.46128
G1 X101.999 Y138.804 E78.54336
G1 X101.728 Y138.178 E78.591
G1 X101.5 Y136.977 E78.67639
G1 X101.53 Y122.925 E79.65787
G1 X101.666 Y121.916 E79.72898
G1 X102.342 Y120.507 E79.83813
G1 X103.378 Y119.386 E79.94475
G0 F6000 X103.756 Y119.861
G1 F900 X104.696 Y119.319 E80.02054
G1 X105.201 Y119.104 E80.05887
G1 X106.276 Y118.9 E80.1353
G1 X153.688 Y118.916 E83.44685
G1 X154.497 Y119.014 E83.50377
G1 X154.825 Y119.102 E83.52749
G1 X155.954 Y119.646 E83.61502
G1 X156.939 Y120.556 E83.70869
G1 X157.481 Y121.496 E83.78447
G1 X157.696 Y122.001 E83.82281
G1 X157.9 Y123.076 E83.89923
G1 X157.875 Y136.995 E84.87143
G1 X157.752 Y137.91 E84.93591
G1 X157.156 Y139.152 E85.03213
G1 X156.244 Y140.139 E85.12599
G1 X155.304 Y140.681 E85.20178
G1 X154.799 Y140.896 E85.24012
G1 X153.724 Y141.1 E85.31654
G1 X106.205 Y141.075 E88.63557
G1 X105.29 Y140.952 E88.70005
G1 X104.048 Y140.356 E88.79627
G1 X103.061 Y139.444 E88.89013
G1 X102.519 Y138.504 E88.96592
G1 X102.304 Y137.999 E89.00426
G1 X102.1 Y136.924 E89.08068
G1 X102.125 Y123.005 E90.05287
G1 X102.248 Y122.09 E90.11736
G1 X102.844 Y120.848 E90.21358
G1 X103.756 Y119.861 E90.30744
G0 F6000 X104.136 Y120.334
G1 F900 X104.931 Y119.871 E90.3717
G1 X105.378 Y119.681 E90.40562
G1 X106.33 Y119.5 E90.47331
G1 X153.616 Y119.512 E93.77606
G1 X154.425 Y119.61 E93.83298
G1 X154.614 Y119.666 E93.84675
G1 X155.612 Y120.147 E93.92413
G1 X156.466 Y120.936 E94.00534
G1 X156.929 Y121.731 E94.0696
G1 X157.119 Y122.178 E94.10352
G1 X157.3 Y123.13 E94.1712
G1 X157.28 Y136.915 E95.13404
G1 X157.17 Y137.736 E95.19189
G1 X156.654 Y138.811 E95.27518
G1 X155.864 Y139.666 E95.35649
G1 X155.069 Y140.129 E95.42075
G1 X154.622 Y140.319 E95.45467
G1 X153.67 Y140.5 E95.52236
G1 X106.285 Y140.48 E98.83202
G1 X105.464 Y140.37 E98.88988
G1 X104.389 Y139.854 E98.97316
G1 X103.534 Y139.064 E99.05447
G1 X103.071 Y138.269 E99.11873
G1 X102.881 Y137.822 E99.15266
G1 X102.7 Y136.87 E99.22034
G1 X102.72 Y123.085 E100.18317
G1 X102.83 Y122.264 E100.24103
G1 X103.346 Y121.189 E100.32432
G1 X104.136 Y120.334 E100.40562
G0 F6000 X104.517 Y120.806
G1 F900 X105.233 Y120.389 E100.4635
G1 X105.553 Y120.258 E100.48765
G1 X106.384 Y120.1 E100.54673
G1 X153.544 Y120.108 E103.84068
G1 X154.353 Y120.206 E103.8976
G1 X155.27 Y120.648 E103.9687
G1 X155.994 Y121.317 E104.03755
G1 X156.411 Y122.033 E104.09543
G1 X156.542 Y122.353 E104.11958
G1 X156.7 Y123.184 E104.17866
G1 X156.685 Y136.836 E105.1322
G1 X156.588 Y137.562 E105.18336
G1 X156.152 Y138.47 E105.25371
G1 X155.483 Y139.194 E105.32257
G1 X154.767 Y139.611 E105.38044
G1 X154.447 Y139.742 E105.40459
G1 X153.616 Y139.9 E105.46367
G1 X106.364 Y139.885 E108.76405
G1 X105.638 Y139.788 E108.81521
G1 X104.73 Y139.352 E108.88556
G1 X104.006 Y138.683 E108.95441
G1 X103.589 Y137.967 E109.01229
G1 X103.458 Y137.647 E109.03644
G1 X103.3 Y136.816 E109.09552
G1 X103.315 Y123.164 E110.04906
G1 X103.412 Y122.438 E110.10022
G1 X103.848 Y121.53 E110.17057
G1 X104.517 Y120.806 E110.23943
G0 F6000 X104.898 Y121.278
G1 F900 X105.535 Y120.907 E110.29091
G1 X105.725 Y120.836 E110.30508
G1 X106.438 Y120.7 E110.35578
G1 X153.472 Y120.704 E113.64093
G1 X154.182 Y120.79 E113.69088
G1 X154.929 Y121.15 E113.7488
G1 X155.522 Y121.698 E113.8052
G1 X155.893 Y122.335 E113.85668
G1 X155.964 Y122.525 E113.87085
G1 X156.1 Y123.238 E113.92155
G1 X156.09 Y136.757 E114.8658
G1 X156.006 Y137.388 E114.91026
G1 X155.65 Y138.129 E114.96768
G1 X155.102 Y138.722 E115.02408
G1 X154.465 Y139.093 E115.07557
G1 X154.275 Y139.164 E115.08973
G1 X153.562 Y139.3 E115.14043
G1 X106.443 Y139.29 E118.43152
G1 X105.812 Y139.206 E118.47598
G1 X105.071 Y138.85 E118.5334
G1 X104.478 Y138.302 E118.5898
G1 X104.107 Y137.665 E118.64129
G1 X104.036 Y137.475 E118.65545
G1 X103.9 Y136.762 E118.70615
G1 X103.91 Y123.243 E119.6504
G1 X103.994 Y122.612 E119.69487
G1 X104.35 Y121.871 E119.75228
G1 X104.898 Y121.278 E119.80868
G0 F6000 X105.279 Y121.75
G1 F900 X105.837 Y121.425 E119.85378
G1 X106.492 Y121.3 E119.90036
G1 X153.4 Y121.3 E123.17671
G1 X154.011 Y121.374 E123.2197
G1 X154.588 Y121.652 E123.26443
G1 X155.05 Y122.079 E123.30837
G1 X155.375 Y122.637 E123.35347
G1 X155.5 Y123.292 E123.40005
G1 X155.495 Y136.678 E124.33501
G1 X155.424 Y137.214 E124.37278
G1 X155.148 Y137.788 E124.41726
G1 X154.721 Y138.25 E124.4612
G1 X154.163 Y138.575 E124.50631
G1 X153.508 Y138.7 E124.55288
G1 X106.522 Y138.695 E127.83468
G1 X105.986 Y138.624 E127.87244
G1 X105.412 Y138.348 E127.91693
G1 X104.95 Y137.921 E127.96087
G1 X104.625 Y137.363 E128.00597
G1 X104.5 Y136.708 E128.05255
G1 X104.505 Y123.322 E128.98751
G1 X104.576 Y122.786 E129.02527
G1 X104.852 Y122.212 E129.06976
G1 X105.279 Y121.75 E129.1137
G0 F6000 X106.037 Y122.698
G1 F900 X106.269 Y122.563 E129.13245
G1 X106.6 Y122.5 E129.15598
G1 X153.4 Y122.5 E132.42479
G1 X153.665 Y122.54 E132.44351
G1 X153.906 Y122.656 E132.46219
G1 X154.102 Y122.837 E132.48082
G1 X154.237 Y123.069 E132.49957
G1 X154.3 Y123.4 E132.52311
G1 X154.3 Y136.6 E133.44508
G1 X154.26 Y136.865 E133.4638
G1 X154.144 Y137.106 E133.48248
G1 X153.963 Y137.302 E133.50111
G1 X153.731 Y137.437 E133.51986
G1 X153.4 Y137.5 E133.54339
G1 X106.6 Y137.5 E136.8122
G1 X106.335 Y137.46 E136.83092
G1 X106.094 Y137.344 E136.8496
G1 X105.898 Y137.163 E136.86823
G1 X105.763 Y136.931 E136.88698
G1 X105.7 Y136.6 E136.91052
G1 X105.7 Y123.4 E137.83249
G1 X105.74 Y123.135 E137.85121
G1 X105.856 Y122.894 E137.86989
G1 X106.037 Y122.698 E137.88852
G0 F6000 X105.658 Y122.224
G1 F900 X105.354 Y122.553 E137.91981
G1 X105.158 Y122.96 E137.95136
G1 X105.1 Y123.4 E137.98236
G1 X105.1 Y136.654 E138.9081
G1 X105.194 Y137.147 E138.94316
G1 X105.424 Y137.542 E138.97508
G1 X105.753 Y137.846 E139.00637
G1 X106.16 Y138.042 E139.03792
G1 X106.6 Y138.1 E139.06892
G1 X153.454 Y138.1 E142.3415
G1 X153.947 Y138.006 E142.37655
G1 X154.342 Y137.776 E142.40848
G1 X154.646 Y137.447 E142.43977
G1 X154.842 Y137.04 E142.47132
G1 X154.9 Y136.6 E142.50232
G1 X154.9 Y123.346 E143.42806
G1 X154.806 Y122.853 E143.46311
G1 X154.576 Y122.458 E143.49504
G1 X154.247 Y122.154 E143.52633
G1 X153.84 Y121.958 E143.55788
G1 X153.4 Y121.9 E143.58888
G1 X106.546 Y121.9 E146.86145
G1 X106.053 Y121.994 E146.89651
G1 X105.658 Y122.224 E146.92843
G1 F2700 E146.42843
;MESH:AutoTowersGenerator
G0 F6000 X108.28 Y122.735
G0 X153.1 Y136.3
;TYPE:WALL-OUTER
G1 F2700 E146.92843
G1 F900 X153.1 Y123.7 E147.8085
G1 X106.9 Y123.7 E151.0354
G1 X106.9 Y136.3 E151.91546
G1 X153.1 Y136.3 E155.14236
G0 F6000 X153.1 Y136.1
G0 X152.5 Y135.7
;TYPE:WALL-INNER
G1 F900 X152.5 Y124.3 E155.93861
G1 X107.5 Y124.3 E159.08169
G1 X107.5 Y135.7 E159.87794
G1 X152.5 Y135.7 E163.02102
G0 F6000 X151.9 Y135.1
G1 F900 X151.9 Y124.9 E163.73345
G1 X108.1 Y124.9 E166.79272
G1 X108.1 Y135.1 E167.50515
G1 X151.9 Y135.1 E170.56442
G0 F6000 X151.42 Y134.62
;TYPE:SKIN
G1 F900 X151.42 Y125.38 E171.2098
G1 X108.58 Y125.38 E174.20201
G1 X108.58 Y134.62 E174.84739
G1 X151.42 Y134.62 E177.83961
G0 F6000 X151.82 Y134.62
G0 X151.82 Y126.512
G0 X151.119 Y126.512
G1 F900 X150.287 Y125.68 E177.92179
G0 F6000 X149.439 Y125.68
G1 F900 X151.119 Y127.36 E178.08774
G0 F6000 X151.119 Y128.209
G1 F900 X148.59 Y125.68 E178.33754
G0 F6000 X147.742 Y125.68
G1 F900 X151.119 Y129.057 E178.67112
G0 F6000 X151.119 Y129.906
G1 F900 X146.893 Y125.68 E179.08855
G0 F6000 X146.045 Y125.68
G1 F900 X151.119 Y130.754 E179.58975
G0 F6000 X151.119 Y131.603
G1 F900 X145.196 Y125.68 E180.17481
G0 F6000 X144.348 Y125.68
G1 F900 X151.119 Y132.451 E180.84363
G0 F6000 X151.119 Y133.3
G1 F900 X143.499 Y125.68 E181.59631
G0 F6000 X142.651 Y125.68
G1 F900 X151.119 Y134.148 E182.43276
G0 F6000 X150.441 Y134.319
G1 F900 X141.802 Y125.68 E183.2861
G0 F6000 X140.953 Y125.68
G1 F900 X149.592 Y134.319 E184.13944
G0 F6000 X148.744 Y134.319
G1 F900 X140.105 Y125.68 E184.99278
G0 F6000 X139.256 Y125.68
G1 F900 X147.895 Y134.319 E185.84612
G0 F6000 X147.047 Y134.319
G1 F900 X138.408 Y125.68 E186.69946
G0 F6000 X137.559 Y125.68
G1 F900 X146.198 Y134.319 E187.5528
G0 F6000 X145.35 Y134.319
G1 F900 X136.711 Y125.68 E188.40614
G0 F6000 X135.862 Y125.68
G1 F900 X144.501 Y134.319 E189.25948
G0 F6000 X143.652 Y134.319
G1 F900 X135.014 Y125.68 E190.11277
G0 F6000 X134.165 Y125.68
G1 F900 X142.804 Y134.319 E190.96611
G0 F6000 X141.955 Y134.319
G1 F900 X133.317 Y125.68 E191.8194
G0 F6000 X132.468 Y125.68
G1 F900 X141.107 Y134.319 E192.67274
G0 F6000 X140.258 Y134.319
G1 F900 X131.62 Y125.68 E193.52603
G0 F6000 X130.771 Y125.68
G1 F900 X139.41 Y134.319 E194.37937
G0 F6000 X138.561 Y134.319
G1 F900 X129.922 Y125.679 E195.23275
G0 F6000 X129.073 Y125.679
G1 F900 X137.713 Y134.319 E196.08619
G0 F6000 X136.864 Y134.319
