;FLAVOR:Marlin
;TIME:3451
;Filament used: 1.92529m
;Layer height: 0.2
;MINX:109.397
;MINY:109.403
;MINZ:0.28
;MAXX:150.603
;MAXY:150.59
;MAXZ:89.986
;TARGET_MACHINE.NAME:Creality Ender-6
;POSTPROCESSED
;  [CreateThumbnail]
;  [CreateThumbnail]
;Generated with Cura_SteamEngine 5.6.0
;
;

;
;

M82 ;absolute extrusion mode
START_PRINT BED_TEMP=60 EXTRUDER_TEMP=220
G92 E0
G92 E0
G1 F2700 E-0.5
;LAYER_COUNT:449
;LAYER:0
M107
M204 S500
G0 F6000 X115.279 Y115.586 Z0.28
;TYPE:SKIRT
G1 F2700 E0
G1 F1200 X116.342 Y114.577 E0.10237
G1 X117.48 Y113.637 E0.20546
G1 X118.521 Y112.89 E0.29496
G1 X119.609 Y112.211 E0.38453
G1 X121.167 Y111.388 E0.5076
G1 X122.48 Y110.819 E0.60755
G1 X123.732 Y110.376 E0.70031
G1 X125.28 Y109.947 E0.81251
G1 X126.383 Y109.719 E0.89118
G1 X128.148 Y109.476 E1.01562
G1 X128.976 Y109.418 E1.0736
G1 X130.363 Y109.403 E1.17048
G1 X131.973 Y109.496 E1.28312
G1 X133.928 Y109.778 E1.42108
G1 X134.918 Y109.996 E1.49188
G1 X136.662 Y110.5 E1.61868
G1 X137.482 Y110.799 E1.67964
G1 X139.252 Y111.589 E1.81503
G1 X140.168 Y112.081 E1.88765
G1 X141.792 Y113.103 E2.02167
G1 X142.673 Y113.753 E2.09814
G1 X143.853 Y114.749 E2.206
G1 X144.903 Y115.775 E2.30853
G1 X145.924 Y116.929 E2.41616
G1 X146.76 Y118.02 E2.51216
G1 X147.551 Y119.21 E2.61196
G1 X148.277 Y120.493 E2.71493
G1 X148.866 Y121.722 E2.81012
G1 X149.39 Y123.045 E2.90951
G1 X149.895 Y124.633 E3.0259
G1 X150.145 Y125.667 E3.1002
G1 X150.425 Y127.313 E3.21682
G1 X150.57 Y128.859 E3.32527
G1 X150.603 Y130.339 E3.42867
G1 X150.564 Y131.315 E3.4969
G1 X150.351 Y133.209 E3.63002
G1 X150.159 Y134.249 E3.70389
G1 X149.728 Y135.944 E3.82604
G1 X149.361 Y137.052 E3.90757
G1 X148.792 Y138.435 E4.01202
G1 X148.017 Y139.992 E4.1335
G1 X147.436 Y140.975 E4.21325
G1 X146.487 Y142.354 E4.33018
G1 X145.782 Y143.244 E4.40948
G1 X144.721 Y144.414 E4.5198
G1 X143.658 Y145.423 E4.62217
G1 X142.52 Y146.363 E4.72526
G1 X141.479 Y147.11 E4.81475
G1 X140.391 Y147.789 E4.90433
G1 X138.833 Y148.612 E5.0274
G1 X137.52 Y149.181 E5.12735
G1 X136.268 Y149.624 E5.22011
G1 X134.719 Y150.053 E5.33237
G1 X133.497 Y150.302 E5.41948
G1 X131.956 Y150.512 E5.52811
G1 X130.665 Y150.59 E5.61844
G1 X128.947 Y150.573 E5.73845
G1 X127.696 Y150.474 E5.8261
G1 X126.318 Y150.27 E5.92339
G1 X125.007 Y149.983 E6.01713
G1 X123.33 Y149.495 E6.13912
G1 X122.394 Y149.149 E6.20882
G1 X120.725 Y148.399 E6.33663
G1 X119.733 Y147.863 E6.41538
G1 X118.205 Y146.894 E6.54176
G1 X117.353 Y146.265 E6.61573
G1 X116.012 Y145.126 E6.73862
G1 X115.15 Y144.283 E6.82283
G1 X114.132 Y143.138 E6.92984
G1 X113.19 Y141.913 E7.03777
G1 X112.513 Y140.896 E7.12311
G1 X111.851 Y139.75 E7.21555
G1 X111.079 Y138.155 E7.33932
G1 X110.643 Y137.059 E7.4217
G1 X110.106 Y135.357 E7.54636
G1 X109.856 Y134.323 E7.62066
G1 X109.57 Y132.638 E7.74003
G1 X109.43 Y131.14 E7.84512
G1 X109.397 Y129.661 E7.94845
G1 X109.436 Y128.685 E8.01667
G1 X109.649 Y126.791 E8.14979
G1 X109.841 Y125.751 E8.22366
G1 X110.272 Y124.056 E8.34582
G1 X110.639 Y122.948 E8.42734
G1 X111.208 Y121.565 E8.5318
G1 X111.983 Y120.008 E8.65327
G1 X112.564 Y119.025 E8.73303
G1 X113.513 Y117.646 E8.84995
G1 X114.218 Y116.756 E8.92925
G1 X115.279 Y115.586 E9.03957
G0 F6000 X115.693 Y116.021
G1 F1200 X116.724 Y115.04 E9.13897
G1 X117.862 Y114.1 E9.24207
G1 X118.839 Y113.399 E9.32606
G1 X119.889 Y112.742 E9.41257
G1 X121.447 Y111.919 E9.53564
G1 X122.681 Y111.384 E9.62958
G1 X123.893 Y110.954 E9.7194
G1 X125.401 Y110.535 E9.82872
G1 X126.504 Y110.307 E9.90739
G1 X128.19 Y110.075 E10.02626
G1 X129.018 Y110.017 E10.08424
G1 X130.369 Y110.003 E10.1786
G1 X131.888 Y110.09 E10.28487
G1 X133.799 Y110.364 E10.41972
G1 X134.789 Y110.582 E10.49052
G1 X136.456 Y111.064 E10.61172
G1 X137.276 Y111.363 E10.67269
G1 X138.969 Y112.118 E10.80216
G1 X139.849 Y112.589 E10.87188
G1 X141.436 Y113.586 E11.00278
G1 X142.286 Y114.212 E11.07651
G1 X143.466 Y115.208 E11.18437
G1 X144.454 Y116.173 E11.28083
G1 X145.448 Y117.294 E11.38548
G1 X146.26 Y118.352 E11.47863
G1 X147.051 Y119.542 E11.57843
G1 X147.736 Y120.753 E11.67561
G1 X148.308 Y121.944 E11.76789
G1 X148.818 Y123.227 E11.86433
G1 X149.312 Y124.775 E11.97782
G1 X149.553 Y125.768 E12.04919
G1 X149.833 Y127.414 E12.16581
G1 X149.97 Y128.873 E12.26816
G1 X150.003 Y130.315 E12.36891
G1 X149.964 Y131.291 E12.43713
G1 X149.761 Y133.1 E12.56428
G1 X149.569 Y134.14 E12.63815
G1 X149.158 Y135.755 E12.75454
G1 X148.791 Y136.863 E12.83607
G1 X148.255 Y138.168 E12.93461
G1 X147.5 Y139.687 E13.05308
G1 X146.919 Y140.67 E13.13284
G1 X146.017 Y141.981 E13.24399
G1 X145.312 Y142.871 E13.32329
G1 X144.307 Y143.979 E13.42777
G1 X143.276 Y144.96 E13.52717
G1 X142.138 Y145.9 E13.63027
G1 X141.161 Y146.601 E13.71426
G1 X140.111 Y147.258 E13.80077
G1 X138.553 Y148.081 E13.92384
G1 X137.319 Y148.616 E14.01778
G1 X136.107 Y149.046 E14.10761
G1 X134.599 Y149.465 E14.21692
G1 X133.416 Y149.707 E14.30126
G1 X131.875 Y149.917 E14.40989
G1 X130.67 Y149.99 E14.49421
G1 X128.994 Y149.975 E14.61128
G1 X127.784 Y149.88 E14.69605
G1 X126.406 Y149.676 E14.79335
G1 X125.174 Y149.407 E14.88143
G1 X123.538 Y148.932 E15.00041
G1 X122.602 Y148.586 E15.07011
G1 X121.01 Y147.871 E15.19201
G1 X120.054 Y147.356 E15.26785
G1 X118.561 Y146.411 E15.39127
G1 X117.741 Y145.807 E15.4624
G1 X116.432 Y144.697 E15.58228
G1 X115.57 Y143.854 E15.66649
G1 X114.607 Y142.772 E15.76766
G1 X113.689 Y141.58 E15.87275
G1 X113.033 Y140.596 E15.95535
G1 X112.371 Y139.45 E16.04779
G1 X111.637 Y137.933 E16.1655
G1 X111.201 Y136.837 E16.24788
G1 X110.689 Y135.215 E16.36668
G1 X110.448 Y134.223 E16.43799
G1 X110.162 Y132.538 E16.55736
G1 X110.03 Y131.126 E16.65641
G1 X109.997 Y129.685 E16.75709
G1 X110.036 Y128.709 E16.82531
G1 X110.239 Y126.9 E16.95246
G1 X110.431 Y125.86 E17.02632
G1 X110.842 Y124.245 E17.14272
G1 X111.209 Y123.137 E17.22425
G1 X111.745 Y121.832 E17.32278
G1 X112.5 Y120.313 E17.44126
G1 X113.081 Y119.33 E17.52102
G1 X113.983 Y118.019 E17.63217
G1 X114.688 Y117.129 E17.71147
G1 X115.693 Y116.021 E17.81595
G0 F6000 X116.107 Y116.456
G1 F1200 X117.138 Y115.475 E17.91535
G1 X118.212 Y114.587 E18.01269
G1 X119.158 Y113.907 E18.09406
G1 X120.169 Y113.273 E18.17741
G1 X121.727 Y112.45 E18.30048
G1 X122.882 Y111.949 E18.38842
G1 X124.054 Y111.532 E18.47531
G1 X125.522 Y111.123 E18.58174
G1 X126.625 Y110.895 E18.66041
G1 X128.232 Y110.674 E18.77371
G1 X129.06 Y110.616 E18.83169
G1 X130.375 Y110.603 E18.92354
G1 X131.803 Y110.684 E19.02344
G1 X133.67 Y110.95 E19.15516
G1 X134.66 Y111.168 E19.22597
G1 X136.25 Y111.628 E19.34158
G1 X137.07 Y111.927 E19.40254
G1 X138.687 Y112.648 E19.5262
G1 X139.53 Y113.097 E19.59291
G1 X141.081 Y114.07 E19.72079
G1 X141.899 Y114.671 E19.79169
G1 X143.079 Y115.667 E19.89954
G1 X144.005 Y116.571 E19.98993
G1 X144.972 Y117.66 E20.09165
G1 X145.76 Y118.684 E20.1819
G1 X146.551 Y119.874 E20.28171
G1 X147.195 Y121.013 E20.3731
G1 X147.767 Y122.204 E20.46538
G1 X148.247 Y123.41 E20.55604
G1 X148.729 Y124.917 E20.66655
G1 X148.961 Y125.869 E20.73499
G1 X149.241 Y127.515 E20.85161
G1 X149.37 Y128.887 E20.94786
G1 X149.403 Y130.291 E21.04595
G1 X149.364 Y131.267 E21.11418
G1 X149.171 Y132.991 E21.23535
G1 X148.979 Y134.031 E21.30921
G1 X148.588 Y135.566 E21.41985
G1 X148.221 Y136.674 E21.50138
G1 X147.718 Y137.901 E21.594
G1 X146.983 Y139.382 E21.70948
G1 X146.402 Y140.365 E21.78923
G1 X145.547 Y141.608 E21.89461
G1 X144.842 Y142.498 E21.97391
G1 X143.893 Y143.544 E22.07256
G1 X142.862 Y144.525 E22.17196
G1 X141.788 Y145.413 E22.2693
G1 X140.842 Y146.093 E22.35067
G1 X139.831 Y146.727 E22.43402
G1 X138.273 Y147.55 E22.55709
G1 X137.118 Y148.051 E22.64503
G1 X135.946 Y148.468 E22.73191
G1 X134.478 Y148.877 E22.83835
G1 X133.335 Y149.112 E22.91986
G1 X131.794 Y149.322 E23.02848
G1 X130.675 Y149.39 E23.10679
G1 X129.041 Y149.377 E23.22092
G1 X127.872 Y149.286 E23.30282
G1 X126.494 Y149.082 E23.40011
G1 X125.341 Y148.831 E23.48253
G1 X123.746 Y148.369 E23.59852
G1 X122.81 Y148.023 E23.66822
G1 X121.294 Y147.342 E23.7843
G1 X120.375 Y146.849 E23.85714
G1 X118.916 Y145.927 E23.97769
G1 X118.129 Y145.349 E24.04589
G1 X116.852 Y144.268 E24.16275
G1 X115.99 Y143.425 E24.24696
G1 X115.082 Y142.405 E24.34234
G1 X114.188 Y141.247 E24.44452
G1 X113.553 Y140.296 E24.52439
G1 X112.891 Y139.15 E24.61683
G1 X112.195 Y137.711 E24.72848
G1 X111.759 Y136.615 E24.81087
G1 X111.272 Y135.073 E24.92381
G1 X111.04 Y134.123 E24.99212
G1 X110.754 Y132.438 E25.11149
G1 X110.63 Y131.112 E25.20451
G1 X110.597 Y129.709 E25.30253
G1 X110.636 Y128.733 E25.37076
G1 X110.829 Y127.009 E25.49193
G1 X111.021 Y125.969 E25.56579
G1 X111.412 Y124.434 E25.67643
G1 X111.779 Y123.326 E25.75796
G1 X112.282 Y122.099 E25.85058
G1 X113.017 Y120.618 E25.96606
G1 X113.598 Y119.635 E26.04581
G1 X114.453 Y118.392 E26.15119
G1 X115.158 Y117.502 E26.23049
G1 X116.107 Y116.456 E26.32914
G0 F6000 X116.521 Y116.891
G1 F1200 X117.552 Y115.91 E26.42854
G1 X118.563 Y115.074 E26.52017
G1 X119.478 Y114.415 E26.59893
G1 X120.449 Y113.804 E26.67906
G1 X122.007 Y112.981 E26.80213
G1 X123.084 Y112.514 E26.88412
G1 X124.215 Y112.11 E26.96801
G1 X125.643 Y111.711 E27.07157
G1 X126.746 Y111.483 E27.15024
G1 X128.274 Y111.273 E27.25796
G1 X129.102 Y111.215 E27.31594
G1 X130.381 Y111.203 E27.40528
G1 X131.719 Y111.278 E27.49888
G1 X133.541 Y111.536 E27.62741
G1 X134.494 Y111.745 E27.69555
G1 X136.044 Y112.192 E27.80823
G1 X136.864 Y112.491 E27.86919
G1 X138.405 Y113.178 E27.98703
G1 X139.248 Y113.627 E28.05374
G1 X140.726 Y114.554 E28.1756
G1 X141.512 Y115.13 E28.24366
G1 X142.692 Y116.126 E28.35152
G1 X143.557 Y116.97 E28.43593
G1 X144.497 Y118.026 E28.53468
G1 X145.261 Y119.017 E28.62208
G1 X146.029 Y120.17 E28.71884
G1 X146.654 Y121.273 E28.80739
G1 X147.226 Y122.464 E28.89967
G1 X147.676 Y123.593 E28.98456
G1 X148.146 Y125.06 E29.09215
G1 X148.369 Y125.97 E29.1576
G1 X148.649 Y127.616 E29.27421
G1 X148.77 Y128.902 E29.36443
G1 X148.803 Y130.267 E29.4598
G1 X148.764 Y131.243 E29.52803
G1 X148.581 Y132.882 E29.64322
G1 X148.389 Y133.922 E29.71708
G1 X148.018 Y135.377 E29.82196
G1 X147.651 Y136.485 E29.90349
G1 X147.18 Y137.635 E29.99028
G1 X146.466 Y139.077 E30.10267
G1 X145.885 Y140.06 E30.18243
G1 X145.077 Y141.235 E30.28203
G1 X144.372 Y142.125 E30.36133
G1 X143.479 Y143.109 E30.45414
G1 X142.448 Y144.09 E30.55354
G1 X141.437 Y144.926 E30.64517
G1 X140.522 Y145.585 E30.72393
G1 X139.551 Y146.196 E30.80406
G1 X137.993 Y147.019 E30.92713
G1 X136.916 Y147.486 E31.00913
G1 X135.785 Y147.89 E31.09301
G1 X134.357 Y148.289 E31.19657
G1 X133.254 Y148.517 E31.27524
G1 X131.713 Y148.727 E31.38387
G1 X130.679 Y148.79 E31.45622
G1 X129.087 Y148.779 E31.56742
G1 X127.96 Y148.692 E31.64637
G1 X126.582 Y148.488 E31.74367
G1 X125.508 Y148.255 E31.82043
G1 X123.954 Y147.806 E31.93341
G1 X123.018 Y147.46 E32.00311
G1 X121.578 Y146.813 E32.11337
G1 X120.659 Y146.32 E32.18622
G1 X119.271 Y145.443 E32.30089
G1 X118.484 Y144.865 E32.3691
G1 X117.271 Y143.839 E32.48006
G1 X116.438 Y143.025 E32.56141
G1 X115.557 Y142.038 E32.65382
G1 X114.687 Y140.913 E32.75315
G1 X114.073 Y139.996 E32.83023
G1 X113.411 Y138.85 E32.92267
G1 X112.753 Y137.489 E33.02826
G1 X112.317 Y136.393 E33.11064
G1 X111.855 Y134.93 E33.2178
G1 X111.632 Y134.023 E33.28304
G1 X111.346 Y132.338 E33.40241
G1 X111.23 Y131.097 E33.48947
G1 X111.197 Y129.733 E33.58477
G1 X111.236 Y128.757 E33.65299
G1 X111.419 Y127.118 E33.76818
G1 X111.611 Y126.078 E33.84205
G1 X111.982 Y124.623 E33.94693
G1 X112.349 Y123.515 E34.02845
G1 X112.82 Y122.365 E34.11525
G1 X113.534 Y120.923 E34.22764
G1 X114.115 Y119.94 E34.3074
G1 X114.923 Y118.765 E34.407
G1 X115.628 Y117.875 E34.4863
G1 X116.521 Y116.891 E34.57911
G0 F6000 X116.935 Y117.325
G1 F1200 X117.935 Y116.372 E34.6756
G1 X118.914 Y115.561 E34.76439
G1 X119.798 Y114.923 E34.84054
G1 X120.769 Y114.312 E34.92067
G1 X122.246 Y113.531 E35.03736
G1 X123.286 Y113.079 E35.11657
G1 X124.377 Y112.688 E35.19752
G1 X125.764 Y112.299 E35.29813
G1 X126.867 Y112.071 E35.3768
G1 X128.316 Y111.872 E35.47896
G1 X129.144 Y111.814 E35.53693
G1 X130.386 Y111.803 E35.62368
G1 X131.635 Y111.872 E35.71106
G1 X133.412 Y112.122 E35.83639
G1 X134.365 Y112.331 E35.90454
G1 X135.838 Y112.756 E36.01162
G1 X136.658 Y113.055 E36.07258
G1 X138.123 Y113.708 E36.18461
G1 X138.966 Y114.157 E36.25132
G1 X140.372 Y115.038 E36.36721
G1 X141.125 Y115.589 E36.43238
G1 X142.305 Y116.585 E36.54024
G1 X143.109 Y117.37 E36.61872
G1 X144.022 Y118.393 E36.71449
G1 X144.762 Y119.35 E36.79899
G1 X145.507 Y120.467 E36.89277
G1 X146.113 Y121.533 E36.97841
G1 X146.669 Y122.687 E37.06788
G1 X147.105 Y123.776 E37.14982
G1 X147.563 Y125.204 E37.25456
G1 X147.777 Y126.071 E37.31694
G1 X148.057 Y127.717 E37.43355
G1 X148.17 Y128.917 E37.51774
G1 X148.203 Y130.243 E37.61039
G1 X148.164 Y131.219 E37.67861
G1 X147.991 Y132.773 E37.78782
G1 X147.799 Y133.813 E37.86169
G1 X147.448 Y135.188 E37.96081
G1 X147.081 Y136.296 E38.04233
G1 X146.642 Y137.369 E38.12331
G1 X145.949 Y138.772 E38.2326
G1 X145.368 Y139.755 E38.31236
G1 X144.607 Y140.862 E38.40619
G1 X143.902 Y141.752 E38.48549
G1 X143.065 Y142.675 E38.57252
G1 X142.065 Y143.628 E38.669
G1 X141.086 Y144.439 E38.7578
G1 X140.202 Y145.077 E38.83394
G1 X139.231 Y145.688 E38.91407
G1 X137.754 Y146.469 E39.03077
G1 X136.714 Y146.921 E39.10997
G1 X135.623 Y147.312 E39.19092
G1 X134.236 Y147.701 E39.29154
G1 X133.133 Y147.929 E39.37021
G1 X131.676 Y148.128 E39.47292
G1 X130.682 Y148.19 E39.54248
G1 X129.133 Y148.181 E39.65067
G1 X128.048 Y148.098 E39.72668
G1 X126.67 Y147.894 E39.82397
G1 X125.636 Y147.669 E39.89789
G1 X124.161 Y147.243 E40.00512
G1 X123.264 Y146.913 E40.07188
G1 X121.862 Y146.284 E40.1792
G1 X120.943 Y145.791 E40.25205
G1 X119.626 Y144.959 E40.36085
G1 X118.839 Y144.381 E40.42905
G1 X117.69 Y143.41 E40.53413
G1 X116.886 Y142.625 E40.61261
G1 X116.005 Y141.638 E40.70502
G1 X115.185 Y140.579 E40.79857
G1 X114.593 Y139.696 E40.87282
G1 X113.931 Y138.55 E40.96526
G1 X113.311 Y137.267 E41.06479
G1 X112.875 Y136.171 E41.14717
G1 X112.438 Y134.787 E41.24854
G1 X112.215 Y133.88 E41.31378
G1 X111.943 Y132.282 E41.427
G1 X111.83 Y131.082 E41.51119
G1 X111.797 Y129.757 E41.60376
G1 X111.836 Y128.781 E41.67199
G1 X112.009 Y127.227 E41.7812
G1 X112.201 Y126.187 E41.85507
G1 X112.552 Y124.812 E41.95418
G1 X112.919 Y123.704 E42.03571
G1 X113.358 Y122.631 E42.11668
G1 X114.051 Y121.228 E42.22598
G1 X114.632 Y120.245 E42.30574
G1 X115.393 Y119.138 E42.39956
G1 X116.098 Y118.248 E42.47887
G1 X116.935 Y117.325 E42.56589
G0 F6000 X117.35 Y117.759
G1 F1200 X118.318 Y116.834 E42.65941
G1 X119.266 Y116.047 E42.74547
G1 X120.118 Y115.431 E42.8189
G1 X121.089 Y114.82 E42.89903
G1 X122.485 Y114.081 E43.00936
G1 X123.489 Y113.644 E43.08584
G1 X124.54 Y113.266 E43.16385
G1 X125.885 Y112.887 E43.26145
G1 X126.988 Y112.659 E43.34012
G1 X128.358 Y112.471 E43.43671
G1 X129.186 Y112.413 E43.49468
G1 X130.391 Y112.403 E43.57885
G1 X131.601 Y112.471 E43.6635
G1 X133.283 Y112.708 E43.78214
G1 X134.236 Y112.917 E43.85028
G1 X135.632 Y113.32 E43.95177
G1 X136.452 Y113.619 E44.01273
G1 X137.841 Y114.238 E44.11895
G1 X138.684 Y114.687 E44.18566
G1 X140.018 Y115.523 E44.29562
G1 X140.738 Y116.048 E44.35786
G1 X141.886 Y117.015 E44.4627
G1 X142.661 Y117.77 E44.53827
G1 X143.574 Y118.793 E44.63404
G1 X144.263 Y119.683 E44.71265
G1 X144.985 Y120.764 E44.80345
G1 X145.591 Y121.83 E44.8891
G1 X146.112 Y122.911 E44.97291
G1 X146.534 Y123.96 E45.05189
G1 X146.98 Y125.348 E45.15372
G1 X147.194 Y126.215 E45.21609
G1 X147.46 Y127.774 E45.32655
G1 X147.57 Y128.932 E45.4078
G1 X147.603 Y130.219 E45.49772
G1 X147.564 Y131.195 E45.56595
G1 X147.401 Y132.665 E45.66925
G1 X147.218 Y133.665 E45.74025
G1 X146.878 Y134.999 E45.83641
G1 X146.511 Y136.107 E45.91793
G1 X146.104 Y137.104 E45.99315
G1 X145.432 Y138.467 E46.09929
G1 X144.851 Y139.45 E46.17905
G1 X144.136 Y140.49 E46.2672
G1 X143.457 Y141.349 E46.34368
G1 X142.65 Y142.241 E46.42769
G1 X141.682 Y143.166 E46.52121
G1 X140.734 Y143.953 E46.60727
G1 X139.882 Y144.569 E46.6807
G1 X138.911 Y145.18 E46.76083
G1 X137.515 Y145.919 E46.87116
G1 X136.511 Y146.356 E46.94764
G1 X135.46 Y146.734 E47.02565
G1 X134.115 Y147.113 E47.12325
